; generated by Slic3r 1.3.0-dev on 2023-04-29 at 11:05:10

; external perimeters extrusion width = 0.44mm (3.38mm^3/s)
; perimeters extrusion width = 0.48mm (7.54mm^3/s)
; infill extrusion width = 0.48mm (10.05mm^3/s)
; solid infill extrusion width = 0.48mm (2.51mm^3/s)
; top infill extrusion width = 0.48mm (1.88mm^3/s)

M107
M104 S200 ; set temperature
G28 ; home all axes
G1 Z5 F5000 ; lift nozzle

; Filament gcode

M109 S200 ; set temperature and wait for it to be reached
G21 ; set units to millimeters
G90 ; use absolute coordinates
M82 ; use absolute distances for extrusion
G92 E0
G1 Z0.350 F7800.000
G1 E-2.00000 F2400.00000
G92 E0
G1 X84.915 Y88.253 Z0.350 F7800.000
G1 E2.00000 F2400.00000
G1 F1800
G1 X86.668 Y86.774 Z0.350 E2.20854
G1 X88.820 Y85.981 Z0.350 E2.41708
G1 X90.000 Y85.875 Z0.350 E2.52479
G1 X110.000 Y85.875 Z0.350 E4.34339
G1 X112.259 Y86.272 Z0.350 E4.55193
G1 X114.247 Y87.415 Z0.350 E4.76047
G1 X115.726 Y89.168 Z0.350 E4.96901
G1 X116.519 Y91.320 Z0.350 E5.17755
G1 X116.625 Y92.500 Z0.350 E5.28526
G1 X116.625 Y107.500 Z0.350 E6.64921
G1 X116.228 Y109.759 Z0.350 E6.85775
G1 X115.085 Y111.747 Z0.350 E7.06629
G1 X113.332 Y113.226 Z0.350 E7.27483
G1 X111.180 Y114.019 Z0.350 E7.48338
G1 X110.000 Y114.125 Z0.350 E7.59109
G1 X90.000 Y114.125 Z0.350 E9.40968
G1 X87.741 Y113.728 Z0.350 E9.61822
G1 X85.753 Y112.585 Z0.350 E9.82676
G1 X84.274 Y110.832 Z0.350 E10.03530
G1 X83.481 Y108.680 Z0.350 E10.24385
G1 X83.375 Y107.500 Z0.350 E10.35156
G1 X83.375 Y92.500 Z0.350 E11.71550
G1 X83.772 Y90.241 Z0.350 E11.92404
G1 X84.886 Y88.305 Z0.350 E12.12713
G1 E10.12713 F2400.00000
G92 E0
G1 X108.400 Y105.900 Z0.350 F7800.000
G1 E2.00000 F2400.00000
G1 F1800
G1 X91.600 Y105.900 Z0.350 E3.52766
G1 X91.600 Y94.100 Z0.350 E4.60067
G1 X108.400 Y94.100 Z0.350 E6.12832
G1 X108.400 Y105.840 Z0.350 E7.19588
G1 X109.025 Y106.525 Z0.350 F7800.000
G1 F1800
G1 X90.975 Y106.525 Z0.350 E8.83718
G1 X90.975 Y93.475 Z0.350 E10.02383
G1 X109.025 Y93.475 Z0.350 E11.66513
G1 X109.025 Y106.465 Z0.350 E12.84632
G1 X109.650 Y107.150 Z0.350 F7800.000
G1 F1800
G1 X90.350 Y107.150 Z0.350 E14.60126
G1 X90.350 Y92.850 Z0.350 E15.90156
G1 X109.650 Y92.850 Z0.350 E17.65650
G1 X109.650 Y107.090 Z0.350 E18.95134
G1 X109.259 Y107.066 F7800.000
G1 E16.95134 F2400.00000
G92 E0
G1 X107.532 Y105.518 Z0.350 F7800.000
G1 E2.00000 F2400.00000
G1 F1800
G1 X108.018 Y105.032 Z0.350 E2.06368
G1 X108.018 Y104.132 Z0.350 E2.14703
G1 X106.632 Y105.518 Z0.350 E2.32858
G1 X105.732 Y105.518 Z0.350 E2.41193
G1 X108.018 Y103.232 Z0.350 E2.71135
G1 X108.018 Y102.332 Z0.350 E2.79470
G1 X104.832 Y105.518 Z0.350 E3.21201
G1 X103.932 Y105.518 Z0.350 E3.29536
G1 X108.018 Y101.432 Z0.350 E3.83053
G1 X108.018 Y100.532 Z0.350 E3.91388
G1 X103.032 Y105.518 Z0.350 E4.56694
G1 X102.132 Y105.518 Z0.350 E4.65029
G1 X108.018 Y99.632 Z0.350 E5.42122
G1 X108.018 Y98.732 Z0.350 E5.50457
G1 X101.232 Y105.518 Z0.350 E6.39337
G1 X100.332 Y105.518 Z0.350 E6.47672
G1 X108.018 Y97.832 Z0.350 E7.48340
G1 X108.018 Y96.932 Z0.350 E7.56675
G1 X99.432 Y105.518 Z0.350 E8.69131
G1 X98.532 Y105.518 Z0.350 E8.77466
G1 X108.018 Y96.032 Z0.350 E10.01709
G1 X108.018 Y95.132 Z0.350 E10.10044
G1 X97.632 Y105.518 Z0.350 E11.46074
G1 X96.732 Y105.518 Z0.350 E11.54409
G1 X107.768 Y94.482 Z0.350 E12.98955
G1 X106.868 Y94.482 Z0.350 E13.07290
G1 X95.832 Y105.518 Z0.350 E14.51836
G1 X94.932 Y105.518 Z0.350 E14.60171
G1 X105.968 Y94.482 Z0.350 E16.04716
G1 X105.068 Y94.482 Z0.350 E16.13051
G1 X94.032 Y105.518 Z0.350 E17.57597
G1 X93.132 Y105.518 Z0.350 E17.65932
G1 X104.168 Y94.482 Z0.350 E19.10477
G1 X103.268 Y94.482 Z0.350 E19.18812
G1 X92.232 Y105.518 Z0.350 E20.63358
G1 X91.982 Y105.518 Z0.350 E20.65672
G1 X91.982 Y104.868 Z0.350 E20.71693
G1 X102.368 Y94.482 Z0.350 E22.07724
G1 X101.468 Y94.482 Z0.350 E22.16059
G1 X91.982 Y103.968 Z0.350 E23.40302
G1 X91.982 Y103.068 Z0.350 E23.48637
G1 X100.568 Y94.482 Z0.350 E24.61093
G1 X99.668 Y94.482 Z0.350 E24.69428
G1 X91.982 Y102.168 Z0.350 E25.70097
G1 X91.982 Y101.268 Z0.350 E25.78432
G1 X98.768 Y94.482 Z0.350 E26.67313
G1 X97.868 Y94.482 Z0.350 E26.75648
G1 X91.982 Y100.368 Z0.350 E27.52741
G1 X91.982 Y99.468 Z0.350 E27.61076
G1 X96.968 Y94.482 Z0.350 E28.26382
G1 X96.068 Y94.482 Z0.350 E28.34717
G1 X91.982 Y98.568 Z0.350 E28.88235
G1 X91.982 Y97.668 Z0.350 E28.96570
G1 X95.168 Y94.482 Z0.350 E29.38301
G1 X94.268 Y94.482 Z0.350 E29.46636
G1 X91.982 Y96.768 Z0.350 E29.76579
G1 X91.982 Y95.868 Z0.350 E29.84914
G1 X93.368 Y94.482 Z0.350 E30.03070
G1 X92.468 Y94.482 Z0.350 E30.11405
G1 X91.982 Y94.968 Z0.350 E30.17770
G1 Z0.650 F7800.000
G1 X108.964 Y106.464 Z0.650 F7800.000
G1 F3600
G1 X91.036 Y106.464 Z0.650 E31.11434
G1 X91.036 Y93.536 Z0.650 E31.78974
G1 X108.964 Y93.536 Z0.650 E32.72638
G1 X108.964 Y106.404 Z0.650 E33.39865
G1 X109.383 Y106.883 Z0.650 F7800.000
G1 F3600
G1 X90.617 Y106.883 Z0.650 E34.37905
G1 X90.617 Y93.117 Z0.650 E35.09823
G1 X109.383 Y93.117 Z0.650 E36.07863
G1 X109.383 Y106.823 Z0.650 E36.79468
G1 X109.780 Y107.280 Z0.650 F7800.000
G1 F1800
G1 X90.220 Y107.280 Z0.650 E37.71105
G1 X90.220 Y92.720 Z0.650 E38.39317
G1 X109.780 Y92.720 Z0.650 E39.30955
G1 X109.780 Y107.220 Z0.650 E39.98886
G1 X109.389 Y107.195 F7800.000
G1 X108.708 Y94.118 Z0.650 F7800.000
G1 F1200
G1 X108.382 Y93.792 Z0.650 E40.01307
G1 X107.786 Y93.792 Z0.650 E40.04435
G1 X108.708 Y94.714 Z0.650 E40.11279
G1 X108.708 Y95.309 Z0.650 E40.14407
G1 X107.191 Y93.792 Z0.650 E40.25674
G1 X106.595 Y93.792 Z0.650 E40.28801
G1 X108.708 Y95.905 Z0.650 E40.44492
G1 X108.708 Y96.500 Z0.650 E40.47619
G1 X106.000 Y93.792 Z0.650 E40.67733
G1 X105.404 Y93.792 Z0.650 E40.70860
G1 X108.708 Y97.096 Z0.650 E40.95397
G1 X108.708 Y97.691 Z0.650 E40.98524
G1 X104.809 Y93.792 Z0.650 E41.27484
G1 X104.213 Y93.792 Z0.650 E41.30612
G1 X108.708 Y98.287 Z0.650 E41.63994
G1 X108.708 Y98.882 Z0.650 E41.67122
G1 X103.618 Y93.792 Z0.650 E42.04928
G1 X103.022 Y93.792 Z0.650 E42.08055
G1 X108.708 Y99.478 Z0.650 E42.50284
G1 X108.708 Y100.073 Z0.650 E42.53412
G1 X102.427 Y93.792 Z0.650 E43.00064
G1 X101.831 Y93.792 Z0.650 E43.03192
G1 X108.708 Y100.669 Z0.650 E43.54267
G1 X108.708 Y101.264 Z0.650 E43.57394
G1 X101.236 Y93.792 Z0.650 E44.12893
G1 X100.640 Y93.792 Z0.650 E44.16020
G1 X108.708 Y101.860 Z0.650 E44.75941
G1 X108.708 Y102.455 Z0.650 E44.79069
G1 X100.045 Y93.792 Z0.650 E45.43413
G1 X99.449 Y93.792 Z0.650 E45.46541
G1 X108.708 Y103.051 Z0.650 E46.15309
G1 X108.708 Y103.646 Z0.650 E46.18436
G1 X98.854 Y93.792 Z0.650 E46.91627
G1 X98.258 Y93.792 Z0.650 E46.94754
G1 X108.708 Y104.242 Z0.650 E47.72368
G1 X108.708 Y104.837 Z0.650 E47.75496
G1 X97.663 Y93.792 Z0.650 E48.57533
G1 X97.067 Y93.792 Z0.650 E48.60660
G1 X108.708 Y105.433 Z0.650 E49.47120
G1 X108.708 Y106.028 Z0.650 E49.50248
G1 X96.472 Y93.792 Z0.650 E50.41131
G1 X95.876 Y93.792 Z0.650 E50.44258
G1 X108.292 Y106.208 Z0.650 E51.36477
G1 X107.697 Y106.208 Z0.650 E51.39604
G1 X95.281 Y93.792 Z0.650 E52.31823
G1 X94.685 Y93.792 Z0.650 E52.34950
G1 X107.101 Y106.208 Z0.650 E53.27169
G1 X106.506 Y106.208 Z0.650 E53.30296
G1 X94.090 Y93.792 Z0.650 E54.22515
G1 X93.494 Y93.792 Z0.650 E54.25642
G1 X105.910 Y106.208 Z0.650 E55.17860
G1 X105.315 Y106.208 Z0.650 E55.20988
G1 X92.899 Y93.792 Z0.650 E56.13206
G1 X92.303 Y93.792 Z0.650 E56.16334
G1 X104.719 Y106.208 Z0.650 E57.08552
G1 X104.124 Y106.208 Z0.650 E57.11680
G1 X91.708 Y93.792 Z0.650 E58.03898
G1 X91.292 Y93.792 Z0.650 E58.06082
G1 X91.292 Y93.972 Z0.650 E58.07026
G1 X103.528 Y106.208 Z0.650 E58.97909
G1 X102.933 Y106.208 Z0.650 E59.01037
G1 X91.292 Y94.567 Z0.650 E59.87497
G1 X91.292 Y95.163 Z0.650 E59.90624
G1 X102.337 Y106.208 Z0.650 E60.72661
G1 X101.742 Y106.208 Z0.650 E60.75789
G1 X91.292 Y95.758 Z0.650 E61.53402
G1 X91.292 Y96.354 Z0.650 E61.56530
G1 X101.146 Y106.208 Z0.650 E62.29721
G1 X100.551 Y106.208 Z0.650 E62.32848
G1 X91.292 Y96.949 Z0.650 E63.01616
G1 X91.292 Y97.545 Z0.650 E63.04744
G1 X99.955 Y106.208 Z0.650 E63.69088
G1 X99.360 Y106.208 Z0.650 E63.72216
G1 X91.292 Y98.140 Z0.650 E64.32137
G1 X91.292 Y98.736 Z0.650 E64.35265
G1 X98.764 Y106.208 Z0.650 E64.90763
G1 X98.169 Y106.208 Z0.650 E64.93890
G1 X91.292 Y99.331 Z0.650 E65.44966
G1 X91.292 Y99.927 Z0.650 E65.48093
G1 X97.573 Y106.208 Z0.650 E65.94745
G1 X96.978 Y106.208 Z0.650 E65.97873
G1 X91.292 Y100.522 Z0.650 E66.40102
G1 X91.292 Y101.118 Z0.650 E66.43229
G1 X96.382 Y106.208 Z0.650 E66.81035
G1 X95.787 Y106.208 Z0.650 E66.84163
G1 X91.292 Y101.713 Z0.650 E67.17546
G1 X91.292 Y102.309 Z0.650 E67.20673
G1 X95.191 Y106.208 Z0.650 E67.49633
G1 X94.596 Y106.208 Z0.650 E67.52761
G1 X91.292 Y102.904 Z0.650 E67.77297
G1 X91.292 Y103.500 Z0.650 E67.80425
G1 X94.000 Y106.208 Z0.650 E68.00538
G1 X93.405 Y106.208 Z0.650 E68.03666
G1 X91.292 Y104.095 Z0.650 E68.19356
G1 X91.292 Y104.691 Z0.650 E68.22484
G1 X92.809 Y106.208 Z0.650 E68.33751
G1 X92.214 Y106.208 Z0.650 E68.36879
G1 X91.292 Y105.286 Z0.650 E68.43723
G1 X91.292 Y105.882 Z0.650 E68.46850
G1 X91.618 Y106.208 Z0.650 E68.49270
G1 Z0.950 F7800.000
G1 X108.964 Y106.464 Z0.950 F7800.000
G1 F3600
G1 X91.036 Y106.464 Z0.950 E69.42934
G1 X91.036 Y93.536 Z0.950 E70.10474
G1 X108.964 Y93.536 Z0.950 E71.04138
G1 X108.964 Y106.404 Z0.950 E71.71365
G1 X109.383 Y106.883 Z0.950 F7800.000
G1 F3600
G1 X90.617 Y106.883 Z0.950 E72.69405
G1 X90.617 Y93.117 Z0.950 E73.41323
G1 X109.383 Y93.117 Z0.950 E74.39363
G1 X109.383 Y106.823 Z0.950 E75.10968
G1 X109.780 Y107.280 Z0.950 F7800.000
G1 F1800
G1 X90.220 Y107.280 Z0.950 E76.02605
G1 X90.220 Y92.720 Z0.950 E76.70818
G1 X109.780 Y92.720 Z0.950 E77.62455
G1 X109.780 Y107.220 Z0.950 E78.30386
G1 X109.389 Y107.195 F7800.000
G1 X108.382 Y106.208 Z0.950 F7800.000
G1 F1200
G1 X108.708 Y105.882 Z0.950 E78.32807
G1 X108.708 Y105.286 Z0.950 E78.35935
G1 X107.786 Y106.208 Z0.950 E78.42779
G1 X107.191 Y106.208 Z0.950 E78.45907
G1 X108.708 Y104.691 Z0.950 E78.57174
G1 X108.708 Y104.095 Z0.950 E78.60301
G1 X106.595 Y106.208 Z0.950 E78.75992
G1 X106.000 Y106.208 Z0.950 E78.79119
G1 X108.708 Y103.500 Z0.950 E78.99233
G1 X108.708 Y102.904 Z0.950 E79.02360
G1 X105.404 Y106.208 Z0.950 E79.26897
G1 X104.809 Y106.208 Z0.950 E79.30025
G1 X108.708 Y102.309 Z0.950 E79.58984
G1 X108.708 Y101.713 Z0.950 E79.62112
G1 X104.213 Y106.208 Z0.950 E79.95494
G1 X103.618 Y106.208 Z0.950 E79.98622
G1 X108.708 Y101.118 Z0.950 E80.36428
G1 X108.708 Y100.522 Z0.950 E80.39555
G1 X103.022 Y106.208 Z0.950 E80.81784
G1 X102.427 Y106.208 Z0.950 E80.84912
G1 X108.708 Y99.927 Z0.950 E81.31564
G1 X108.708 Y99.331 Z0.950 E81.34692
G1 X101.831 Y106.208 Z0.950 E81.85767
G1 X101.236 Y106.208 Z0.950 E81.88894
G1 X108.708 Y98.736 Z0.950 E82.44393
G1 X108.708 Y98.140 Z0.950 E82.47520
G1 X100.640 Y106.208 Z0.950 E83.07441
G1 X100.045 Y106.208 Z0.950 E83.10569
G1 X108.708 Y97.545 Z0.950 E83.74913
G1 X108.708 Y96.949 Z0.950 E83.78041
G1 X99.449 Y106.208 Z0.950 E84.46809
G1 X98.854 Y106.208 Z0.950 E84.49936
G1 X108.708 Y96.354 Z0.950 E85.23127
G1 X108.708 Y95.758 Z0.950 E85.26254
G1 X98.258 Y106.208 Z0.950 E86.03868
G1 X97.663 Y106.208 Z0.950 E86.06996
G1 X108.708 Y95.163 Z0.950 E86.89033
G1 X108.708 Y94.567 Z0.950 E86.92160
G1 X97.067 Y106.208 Z0.950 E87.78620
G1 X96.472 Y106.208 Z0.950 E87.81748
G1 X108.708 Y93.972 Z0.950 E88.72631
G1 X108.708 Y93.792 Z0.950 E88.73575
G1 X108.292 Y93.792 Z0.950 E88.75758
G1 X95.876 Y106.208 Z0.950 E89.67977
G1 X95.281 Y106.208 Z0.950 E89.71104
G1 X107.697 Y93.792 Z0.950 E90.63323
G1 X107.101 Y93.792 Z0.950 E90.66450
G1 X94.685 Y106.208 Z0.950 E91.58669
G1 X94.090 Y106.208 Z0.950 E91.61796
G1 X106.506 Y93.792 Z0.950 E92.54014
G1 X105.910 Y93.792 Z0.950 E92.57142
G1 X93.494 Y106.208 Z0.950 E93.49360
G1 X92.899 Y106.208 Z0.950 E93.52488
G1 X105.315 Y93.792 Z0.950 E94.44706
G1 X104.719 Y93.792 Z0.950 E94.47834
G1 X92.303 Y106.208 Z0.950 E95.40052
G1 X91.708 Y106.208 Z0.950 E95.43180
G1 X104.124 Y93.792 Z0.950 E96.35398
G1 X103.528 Y93.792 Z0.950 E96.38526
G1 X91.292 Y106.028 Z0.950 E97.29409
G1 X91.292 Y105.433 Z0.950 E97.32536
G1 X102.933 Y93.792 Z0.950 E98.18996
G1 X102.337 Y93.792 Z0.950 E98.22124
G1 X91.292 Y104.837 Z0.950 E99.04161
G1 X91.292 Y104.242 Z0.950 E99.07288
G1 X101.742 Y93.792 Z0.950 E99.84902
G1 X101.146 Y93.792 Z0.950 E99.88030
G1 X91.292 Y103.646 Z0.950 E100.61220
G1 X91.292 Y103.051 Z0.950 E100.64348
G1 X100.551 Y93.792 Z0.950 E101.33116
G1 X99.955 Y93.792 Z0.950 E101.36243
G1 X91.292 Y102.455 Z0.950 E102.00588
G1 X91.292 Y101.860 Z0.950 E102.03715
G1 X99.360 Y93.792 Z0.950 E102.63637
G1 X98.764 Y93.792 Z0.950 E102.66764
G1 X91.292 Y101.264 Z0.950 E103.22262
G1 X91.292 Y100.669 Z0.950 E103.25390
G1 X98.169 Y93.792 Z0.950 E103.76465
G1 X97.573 Y93.792 Z0.950 E103.79593
G1 X91.292 Y100.073 Z0.950 E104.26245
G1 X91.292 Y99.478 Z0.950 E104.29372
G1 X96.978 Y93.792 Z0.950 E104.71601
G1 X96.382 Y93.792 Z0.950 E104.74729
G1 X91.292 Y98.882 Z0.950 E105.12535
G1 X91.292 Y98.287 Z0.950 E105.15662
G1 X95.787 Y93.792 Z0.950 E105.49045
G1 X95.191 Y93.792 Z0.950 E105.52173
G1 X91.292 Y97.691 Z0.950 E105.81132
G1 X91.292 Y97.096 Z0.950 E105.84260
G1 X94.596 Y93.792 Z0.950 E106.08797
G1 X94.000 Y93.792 Z0.950 E106.11924
G1 X91.292 Y96.500 Z0.950 E106.32038
G1 X91.292 Y95.905 Z0.950 E106.35165
G1 X93.405 Y93.792 Z0.950 E106.50856
G1 X92.809 Y93.792 Z0.950 E106.53983
G1 X91.292 Y95.309 Z0.950 E106.65250
G1 X91.292 Y94.714 Z0.950 E106.68378
G1 X92.214 Y93.792 Z0.950 E106.75222
G1 X91.618 Y93.792 Z0.950 E106.78350
G1 X91.292 Y94.118 Z0.950 E106.80770
M106 S249.9
G1 Z1.250 F7800.000
G1 X108.964 Y106.464 Z1.250 F7800.000
G1 F3600
G1 X91.036 Y106.464 Z1.250 E107.74433
G1 X91.036 Y93.536 Z1.250 E108.41974
G1 X108.964 Y93.536 Z1.250 E109.35637
G1 X108.964 Y106.404 Z1.250 E110.02865
G1 X109.383 Y106.883 Z1.250 F7800.000
G1 F3600
G1 X90.617 Y106.883 Z1.250 E111.00905
G1 X90.617 Y93.117 Z1.250 E111.72823
G1 X109.383 Y93.117 Z1.250 E112.70863
G1 X109.383 Y106.823 Z1.250 E113.42467
G1 X109.780 Y107.280 Z1.250 F7800.000
G1 F1800
G1 X90.220 Y107.280 Z1.250 E114.34104
G1 X90.220 Y92.720 Z1.250 E115.02317
G1 X109.780 Y92.720 Z1.250 E115.93954
G1 X109.780 Y107.220 Z1.250 E116.61886
G1 X109.389 Y107.195 F7800.000
G1 X104.825 Y106.268 Z1.250 F7800.000
G1 F4800
G1 X108.184 Y93.732 Z1.250 E117.29685
G1 X108.768 Y94.398 Z1.250 F7800.000
G1 F4800
G1 X91.232 Y99.097 Z1.250 E118.24529
G1 X91.292 Y100.178 Z1.250 F7800.000
G1 F4800
G1 X97.322 Y106.208 Z1.250 E118.69082
G1 X106.208 Y106.208 Z1.250 E119.15506
G1 X93.792 Y93.792 Z1.250 E120.07241
G1 X102.678 Y93.792 Z1.250 E120.53664
G1 X108.708 Y99.822 Z1.250 E120.98218
G1 X108.768 Y100.903 Z1.250 F7800.000
G1 F4800
G1 X91.232 Y105.602 Z1.250 E121.93061
G1 X91.816 Y106.268 Z1.250 F7800.000
G1 F4800
G1 X95.175 Y93.732 Z1.250 E122.60861
G1 X101.679 Y93.732 Z1.250 F7800.000
G1 F4800
G1 X98.321 Y106.268 Z1.250 E123.28660
M106 S242.25
G1 Z1.550 F7800.000
G1 X108.964 Y106.464 Z1.550 F7800.000
G1 F3600
G1 X91.036 Y106.464 Z1.550 E124.22324
G1 X91.036 Y93.536 Z1.550 E124.89865
G1 X108.964 Y93.536 Z1.550 E125.83528
G1 X108.964 Y106.404 Z1.550 E126.50755
G1 X109.383 Y106.883 Z1.550 F7800.000
G1 F3600
G1 X90.617 Y106.883 Z1.550 E127.48796
G1 X90.617 Y93.117 Z1.550 E128.20713
G1 X109.383 Y93.117 Z1.550 E129.18753
G1 X109.383 Y106.823 Z1.550 E129.90358
G1 X109.780 Y107.280 Z1.550 F7800.000
G1 F1800
G1 X90.220 Y107.280 Z1.550 E130.81995
G1 X90.220 Y92.720 Z1.550 E131.50208
G1 X109.780 Y92.720 Z1.550 E132.41845
G1 X109.780 Y107.220 Z1.550 E133.09777
G1 X109.389 Y107.195 F7800.000
G1 X108.360 Y106.198 Z1.550 F7800.000
M106 S255

G1 F3600
G1 X108.698 Y105.860 Z1.550 E133.12355
G1 X108.698 Y105.215 Z1.550 E133.15835
G1 X107.715 Y106.198 Z1.550 E133.23336
G1 X107.069 Y106.198 Z1.550 E133.26817
G1 X108.698 Y104.569 Z1.550 E133.39240
G1 X108.698 Y103.924 Z1.550 E133.42720
G1 X106.424 Y106.198 Z1.550 E133.60066
G1 X105.779 Y106.198 Z1.550 E133.63547
G1 X108.698 Y103.279 Z1.550 E133.85814
G1 X108.698 Y102.633 Z1.550 E133.89295
G1 X105.133 Y106.198 Z1.550 E134.16485
G1 X104.488 Y106.198 Z1.550 E134.19966
G1 X108.698 Y101.988 Z1.550 E134.52079
G1 X108.698 Y101.342 Z1.550 E134.55560
G1 X103.842 Y106.198 Z1.550 E134.92595
