; generated by Slic3r 1.3.0-dev on 2022-06-13 at 19:52:19

; external perimeters extrusion width = 0.33mm (1.10mm^3/s)
; perimeters extrusion width = 0.42mm (2.84mm^3/s)
; infill extrusion width = 0.38mm (3.35mm^3/s)
; solid infill extrusion width = 0.42mm (0.95mm^3/s)
; top infill extrusion width = 0.42mm (0.71mm^3/s)

M107
M190 S55 ; set bed temperature and wait for it to be reached
M104 S215 ; set temperature
G28 ; home all axes
G1 Z5 F5000 ; lift nozzle

; Filament gcode

M109 S215 ; set temperature and wait for it to be reached
G21 ; set units to millimeters
G90 ; use absolute coordinates
M82 ; use absolute distances for extrusion
G92 E0
G1 Z0.240 F7800.000
G1 E-2.00000 F2400.00000
G92 E0
G1 X85.110 Y90.827 Z0.240 F7800.000
G1 E2.00000 F2400.00000
G1 F1800
G1 X86.856 Y89.393 Z0.240 E2.09658
G1 X90.000 Y88.572 Z0.240 E2.23554
G1 X110.000 Y88.572 Z0.240 E3.09065
G1 X112.224 Y88.968 Z0.240 E3.18723
G1 X114.173 Y90.110 Z0.240 E3.28381
G1 X115.607 Y91.856 Z0.240 E3.38039
G1 X116.428 Y95.000 Z0.240 E3.51935
G1 X116.428 Y105.000 Z0.240 E3.94691
G1 X116.032 Y107.224 Z0.240 E4.04349
G1 X114.890 Y109.173 Z0.240 E4.14007
G1 X113.144 Y110.607 Z0.240 E4.23665
G1 X110.000 Y111.428 Z0.240 E4.37561
G1 X90.000 Y111.428 Z0.240 E5.23072
G1 X87.776 Y111.032 Z0.240 E5.32730
G1 X85.827 Y109.890 Z0.240 E5.42388
G1 X84.393 Y108.144 Z0.240 E5.52046
G1 X83.572 Y105.000 Z0.240 E5.65942
G1 X83.572 Y95.000 Z0.240 E6.08697
G1 X83.968 Y92.776 Z0.240 E6.18356
G1 X85.087 Y90.866 Z0.240 E6.27821
G1 E4.27821 F2400.00000
G92 E0
G1 X108.903 Y103.903 Z0.240 F7800.000
G1 E2.00000 F2400.00000
G1 F1800
G1 X91.097 Y103.903 Z0.240 E2.76131
G1 X91.097 Y96.097 Z0.240 E3.09506
G1 X108.903 Y96.097 Z0.240 E3.85636
G1 X108.903 Y103.858 Z0.240 E4.18819
G1 X109.332 Y104.332 Z0.240 F7800.000
G1 F1800
G1 X90.668 Y104.332 Z0.240 E4.98614
G1 X90.668 Y95.668 Z0.240 E5.35653
G1 X109.332 Y95.668 Z0.240 E6.15447
G1 X109.332 Y104.287 Z0.240 E6.52294
G1 X109.760 Y104.760 Z0.240 F7800.000
G1 F1800
G1 X90.240 Y104.760 Z0.240 E7.35753
G1 X90.240 Y95.240 Z0.240 E7.76456
G1 X109.760 Y95.240 Z0.240 E8.59915
G1 X109.760 Y104.715 Z0.240 E9.00426
G1 X109.463 Y104.715 F7800.000
G1 X108.308 Y103.641 Z0.240 F7800.000
G1 F1800
G1 X108.641 Y103.308 Z0.240 E9.02465
G1 X108.641 Y102.695 Z0.240 E9.05114
G1 X107.695 Y103.641 Z0.240 E9.10899
G1 X107.082 Y103.641 Z0.240 E9.13548
G1 X108.641 Y102.082 Z0.240 E9.23080
G1 X108.641 Y101.469 Z0.240 E9.25729
G1 X106.469 Y103.641 Z0.240 E9.39008
G1 X105.857 Y103.641 Z0.240 E9.41657
G1 X108.641 Y100.857 Z0.240 E9.58682
G1 X108.641 Y100.244 Z0.240 E9.61331
G1 X105.244 Y103.641 Z0.240 E9.82103
G1 X104.631 Y103.641 Z0.240 E9.84752
G1 X108.641 Y99.631 Z0.240 E10.09270
G1 X108.641 Y99.018 Z0.240 E10.11919
G1 X104.018 Y103.641 Z0.240 E10.40184
G1 X103.406 Y103.641 Z0.240 E10.42833
G1 X108.641 Y98.406 Z0.240 E10.74844
G1 X108.641 Y97.793 Z0.240 E10.77494
G1 X102.793 Y103.641 Z0.240 E11.13252
G1 X102.180 Y103.641 Z0.240 E11.15901
G1 X108.641 Y97.180 Z0.240 E11.55405
G1 X108.641 Y96.567 Z0.240 E11.58054
G1 X101.567 Y103.641 Z0.240 E12.01305
G1 X100.955 Y103.641 Z0.240 E12.03955
G1 X108.237 Y96.359 Z0.240 E12.48481
G1 X107.624 Y96.359 Z0.240 E12.51130
G1 X100.342 Y103.641 Z0.240 E12.95656
G1 X99.729 Y103.641 Z0.240 E12.98305
G1 X107.011 Y96.359 Z0.240 E13.42831
G1 X106.399 Y96.359 Z0.240 E13.45480
G1 X99.116 Y103.641 Z0.240 E13.90006
G1 X98.504 Y103.641 Z0.240 E13.92656
G1 X105.786 Y96.359 Z0.240 E14.37182
G1 X105.173 Y96.359 Z0.240 E14.39831
G1 X97.891 Y103.641 Z0.240 E14.84357
G1 X97.278 Y103.641 Z0.240 E14.87006
G1 X104.560 Y96.359 Z0.240 E15.31532
G1 X103.948 Y96.359 Z0.240 E15.34181
G1 X96.665 Y103.641 Z0.240 E15.78707
G1 X96.052 Y103.641 Z0.240 E15.81356
G1 X103.335 Y96.359 Z0.240 E16.25882
G1 X102.722 Y96.359 Z0.240 E16.28532
G1 X95.440 Y103.641 Z0.240 E16.73058
G1 X94.827 Y103.641 Z0.240 E16.75707
G1 X102.109 Y96.359 Z0.240 E17.20233
G1 X101.497 Y96.359 Z0.240 E17.22882
G1 X94.214 Y103.641 Z0.240 E17.67408
G1 X93.601 Y103.641 Z0.240 E17.70057
G1 X100.884 Y96.359 Z0.240 E18.14583
G1 X100.271 Y96.359 Z0.240 E18.17233
G1 X92.989 Y103.641 Z0.240 E18.61759
G1 X92.376 Y103.641 Z0.240 E18.64408
G1 X99.658 Y96.359 Z0.240 E19.08934
G1 X99.045 Y96.359 Z0.240 E19.11583
G1 X91.763 Y103.641 Z0.240 E19.56109
G1 X91.359 Y103.641 Z0.240 E19.57857
G1 X91.359 Y103.433 Z0.240 E19.58758
G1 X98.433 Y96.359 Z0.240 E20.02009
G1 X97.820 Y96.359 Z0.240 E20.04659
G1 X91.359 Y102.820 Z0.240 E20.44163
G1 X91.359 Y102.207 Z0.240 E20.46812
G1 X97.207 Y96.359 Z0.240 E20.82570
G1 X96.594 Y96.359 Z0.240 E20.85220
G1 X91.359 Y101.594 Z0.240 E21.17231
G1 X91.359 Y100.982 Z0.240 E21.19880
G1 X95.982 Y96.359 Z0.240 E21.48145
G1 X95.369 Y96.359 Z0.240 E21.50794
G1 X91.359 Y100.369 Z0.240 E21.75313
G1 X91.359 Y99.756 Z0.240 E21.77962
G1 X94.756 Y96.359 Z0.240 E21.98734
G1 X94.143 Y96.359 Z0.240 E22.01383
G1 X91.359 Y99.143 Z0.240 E22.18408
G1 X91.359 Y98.531 Z0.240 E22.21057
G1 X93.531 Y96.359 Z0.240 E22.34336
G1 X92.918 Y96.359 Z0.240 E22.36985
G1 X91.359 Y97.918 Z0.240 E22.46517
G1 X91.359 Y97.305 Z0.240 E22.49166
G1 X92.305 Y96.359 Z0.240 E22.54952
G1 X91.692 Y96.359 Z0.240 E22.57601
G1 X91.359 Y96.692 Z0.240 E22.59639
M104 S210 ; set temperature
M140 S50 ; set bed temperature
G1 Z0.360 F7800.000
G1 X109.092 Y104.092 Z0.360 F7800.000
G1 F3600
G1 X90.908 Y104.092 Z0.360 E22.95403
G1 X90.908 Y95.908 Z0.360 E23.11499
G1 X109.092 Y95.908 Z0.360 E23.47263
G1 X109.092 Y104.047 Z0.360 E23.63270
G1 X109.486 Y104.486 Z0.360 F7800.000
G1 F3600
G1 X90.514 Y104.486 Z0.360 E24.00585
G1 X90.514 Y95.514 Z0.360 E24.18231
G1 X109.486 Y95.514 Z0.360 E24.55546
G1 X109.486 Y104.441 Z0.360 E24.73104
G1 X109.835 Y104.835 Z0.360 F7800.000
G1 F1800
G1 X90.165 Y104.835 Z0.360 E25.02961
G1 X90.165 Y95.165 Z0.360 E25.17639
G1 X109.835 Y95.165 Z0.360 E25.47496
G1 X109.835 Y104.790 Z0.360 E25.62106
G1 X109.538 Y104.789 F7800.000
G1 X108.851 Y96.456 Z0.360 F7800.000
G1 F1200
G1 X108.544 Y96.149 Z0.360 E25.62969
G1 X107.980 Y96.149 Z0.360 E25.64088
G1 X108.851 Y97.020 Z0.360 E25.66534
G1 X108.851 Y97.583 Z0.360 E25.67654
G1 X107.417 Y96.149 Z0.360 E25.71683
G1 X106.854 Y96.149 Z0.360 E25.72803
G1 X108.851 Y98.146 Z0.360 E25.78416
G1 X108.851 Y98.710 Z0.360 E25.79535
G1 X106.290 Y96.149 Z0.360 E25.86732
G1 X105.727 Y96.149 Z0.360 E25.87852
G1 X108.851 Y99.273 Z0.360 E25.96631
G1 X108.851 Y99.836 Z0.360 E25.97751
G1 X105.164 Y96.149 Z0.360 E26.08115
G1 X104.600 Y96.149 Z0.360 E26.09234
G1 X108.851 Y100.400 Z0.360 E26.21181
G1 X108.851 Y100.963 Z0.360 E26.22301
G1 X104.037 Y96.149 Z0.360 E26.35831
G1 X103.473 Y96.149 Z0.360 E26.36951
G1 X108.851 Y101.527 Z0.360 E26.52065
G1 X108.851 Y102.090 Z0.360 E26.53185
G1 X102.910 Y96.149 Z0.360 E26.69882
G1 X102.347 Y96.149 Z0.360 E26.71002
G1 X108.851 Y102.653 Z0.360 E26.89283
G1 X108.851 Y103.217 Z0.360 E26.90403
G1 X101.783 Y96.149 Z0.360 E27.10267
G1 X101.220 Y96.149 Z0.360 E27.11387
G1 X108.851 Y103.780 Z0.360 E27.32835
G1 X108.851 Y103.851 Z0.360 E27.32975
G1 X108.358 Y103.851 Z0.360 E27.33955
G1 X100.656 Y96.149 Z0.360 E27.55601
G1 X100.093 Y96.149 Z0.360 E27.56721
G1 X107.794 Y103.851 Z0.360 E27.78367
G1 X107.231 Y103.851 Z0.360 E27.79486
G1 X99.530 Y96.149 Z0.360 E28.01132
G1 X98.966 Y96.149 Z0.360 E28.02252
G1 X106.668 Y103.851 Z0.360 E28.23898
G1 X106.104 Y103.851 Z0.360 E28.25018
G1 X98.403 Y96.149 Z0.360 E28.46664
G1 X97.840 Y96.149 Z0.360 E28.47784
G1 X105.541 Y103.851 Z0.360 E28.69430
G1 X104.977 Y103.851 Z0.360 E28.70549
G1 X97.276 Y96.149 Z0.360 E28.92196
G1 X96.713 Y96.149 Z0.360 E28.93315
G1 X104.414 Y103.851 Z0.360 E29.14961
G1 X103.851 Y103.851 Z0.360 E29.16081
G1 X96.149 Y96.149 Z0.360 E29.37727
G1 X95.586 Y96.149 Z0.360 E29.38847
G1 X103.287 Y103.851 Z0.360 E29.60493
G1 X102.724 Y103.851 Z0.360 E29.61613
G1 X95.023 Y96.149 Z0.360 E29.83259
G1 X94.459 Y96.149 Z0.360 E29.84378
G1 X102.160 Y103.851 Z0.360 E30.06025
G1 X101.597 Y103.851 Z0.360 E30.07144
G1 X93.896 Y96.149 Z0.360 E30.28790
G1 X93.332 Y96.149 Z0.360 E30.29910
G1 X101.034 Y103.851 Z0.360 E30.51556
G1 X100.470 Y103.851 Z0.360 E30.52676
G1 X92.769 Y96.149 Z0.360 E30.74322
G1 X92.206 Y96.149 Z0.360 E30.75442
G1 X99.907 Y103.851 Z0.360 E30.97088
G1 X99.344 Y103.851 Z0.360 E30.98207
G1 X91.642 Y96.149 Z0.360 E31.19854
G1 X91.149 Y96.149 Z0.360 E31.20833
G1 X91.149 Y96.220 Z0.360 E31.20973
G1 X98.780 Y103.851 Z0.360 E31.42421
G1 X98.217 Y103.851 Z0.360 E31.43541
G1 X91.149 Y96.783 Z0.360 E31.63406
G1 X91.149 Y97.347 Z0.360 E31.64525
G1 X97.653 Y103.851 Z0.360 E31.82806
G1 X97.090 Y103.851 Z0.360 E31.83926
G1 X91.149 Y97.910 Z0.360 E32.00624
G1 X91.149 Y98.473 Z0.360 E32.01743
G1 X96.527 Y103.851 Z0.360 E32.16857
G1 X95.963 Y103.851 Z0.360 E32.17977
G1 X91.149 Y99.037 Z0.360 E32.31508
G1 X91.149 Y99.600 Z0.360 E32.32627
G1 X95.400 Y103.851 Z0.360 E32.44574
G1 X94.836 Y103.851 Z0.360 E32.45694
G1 X91.149 Y100.164 Z0.360 E32.56058
G1 X91.149 Y100.727 Z0.360 E32.57177
G1 X94.273 Y103.851 Z0.360 E32.65957
G1 X93.710 Y103.851 Z0.360 E32.67077
G1 X91.149 Y101.290 Z0.360 E32.74273
G1 X91.149 Y101.854 Z0.360 E32.75393
G1 X93.146 Y103.851 Z0.360 E32.81006
G1 X92.583 Y103.851 Z0.360 E32.82126
G1 X91.149 Y102.417 Z0.360 E32.86155
G1 X91.149 Y102.980 Z0.360 E32.87275
G1 X92.020 Y103.851 Z0.360 E32.89721
G1 X91.456 Y103.851 Z0.360 E32.90841
G1 X91.149 Y103.544 Z0.360 E32.91703
G1 Z0.480 F7800.000
G1 X109.092 Y104.092 Z0.480 F7800.000
G1 F3600
G1 X90.908 Y104.092 Z0.480 E33.27467
G1 X90.908 Y95.908 Z0.480 E33.43563
G1 X109.092 Y95.908 Z0.480 E33.79327
G1 X109.092 Y104.047 Z0.480 E33.95334
G1 X109.486 Y104.486 Z0.480 F7800.000
G1 F3600
G1 X90.514 Y104.486 Z0.480 E34.32649
G1 X90.514 Y95.514 Z0.480 E34.50295
G1 X109.486 Y95.514 Z0.480 E34.87611
G1 X109.486 Y104.441 Z0.480 E35.05168
G1 X109.835 Y104.835 Z0.480 F7800.000
G1 F1800
G1 X90.165 Y104.835 Z0.480 E35.35025
G1 X90.165 Y95.165 Z0.480 E35.49703
G1 X109.835 Y95.165 Z0.480 E35.79560
G1 X109.835 Y104.790 Z0.480 E35.94170
G1 X109.538 Y104.789 F7800.000
G1 X108.544 Y103.851 Z0.480 F7800.000
G1 F1200
G1 X108.851 Y103.544 Z0.480 E35.95033
G1 X108.851 Y102.980 Z0.480 E35.96152
G1 X107.980 Y103.851 Z0.480 E35.98598
G1 X107.417 Y103.851 Z0.480 E35.99718
G1 X108.851 Y102.417 Z0.480 E36.03747
G1 X108.851 Y101.854 Z0.480 E36.04867
G1 X106.854 Y103.851 Z0.480 E36.10480
G1 X106.290 Y103.851 Z0.480 E36.11600
G1 X108.851 Y101.290 Z0.480 E36.18796
G1 X108.851 Y100.727 Z0.480 E36.19916
G1 X105.727 Y103.851 Z0.480 E36.28696
G1 X105.164 Y103.851 Z0.480 E36.29815
G1 X108.851 Y100.164 Z0.480 E36.40179
G1 X108.851 Y99.600 Z0.480 E36.41298
G1 X104.600 Y103.851 Z0.480 E36.53245
G1 X104.037 Y103.851 Z0.480 E36.54365
G1 X108.851 Y99.037 Z0.480 E36.67895
G1 X108.851 Y98.473 Z0.480 E36.69015
G1 X103.473 Y103.851 Z0.480 E36.84129
G1 X102.910 Y103.851 Z0.480 E36.85249
G1 X108.851 Y97.910 Z0.480 E37.01946
G1 X108.851 Y97.347 Z0.480 E37.03066
G1 X102.347 Y103.851 Z0.480 E37.21347
G1 X101.783 Y103.851 Z0.480 E37.22467
G1 X108.851 Y96.783 Z0.480 E37.42331
G1 X108.851 Y96.220 Z0.480 E37.43451
G1 X101.220 Y103.851 Z0.480 E37.64899
G1 X100.656 Y103.851 Z0.480 E37.66019
G1 X108.358 Y96.149 Z0.480 E37.87665
G1 X107.794 Y96.149 Z0.480 E37.88785
G1 X100.093 Y103.851 Z0.480 E38.10431
G1 X99.530 Y103.851 Z0.480 E38.11550
G1 X107.231 Y96.149 Z0.480 E38.33196
G1 X106.668 Y96.149 Z0.480 E38.34316
G1 X98.966 Y103.851 Z0.480 E38.55962
G1 X98.403 Y103.851 Z0.480 E38.57082
G1 X106.104 Y96.149 Z0.480 E38.78728
G1 X105.541 Y96.149 Z0.480 E38.79848
G1 X97.840 Y103.851 Z0.480 E39.01494
G1 X97.276 Y103.851 Z0.480 E39.02614
G1 X104.977 Y96.149 Z0.480 E39.24260
G1 X104.414 Y96.149 Z0.480 E39.25379
G1 X96.713 Y103.851 Z0.480 E39.47025
G1 X96.149 Y103.851 Z0.480 E39.48145
G1 X103.851 Y96.149 Z0.480 E39.69791
G1 X103.287 Y96.149 Z0.480 E39.70911
G1 X95.586 Y103.851 Z0.480 E39.92557
G1 X95.023 Y103.851 Z0.480 E39.93677
G1 X102.724 Y96.149 Z0.480 E40.15323
G1 X102.160 Y96.149 Z0.480 E40.16443
G1 X94.459 Y103.851 Z0.480 E40.38089
G1 X93.896 Y103.851 Z0.480 E40.39208
G1 X101.597 Y96.149 Z0.480 E40.60854
G1 X101.034 Y96.149 Z0.480 E40.61974
G1 X93.332 Y103.851 Z0.480 E40.83620
G1 X92.769 Y103.851 Z0.480 E40.84740
G1 X100.470 Y96.149 Z0.480 E41.06386
G1 X99.907 Y96.149 Z0.480 E41.07506
G1 X92.206 Y103.851 Z0.480 E41.29152
G1 X91.642 Y103.851 Z0.480 E41.30272
G1 X99.344 Y96.149 Z0.480 E41.51918
G1 X98.780 Y96.149 Z0.480 E41.53037
G1 X91.149 Y103.780 Z0.480 E41.74485
G1 X91.149 Y103.217 Z0.480 E41.75605
G1 X98.217 Y96.149 Z0.480 E41.95470
G1 X97.653 Y96.149 Z0.480 E41.96589
G1 X91.149 Y102.653 Z0.480 E42.14871
G1 X91.149 Y102.090 Z0.480 E42.15990
G1 X97.090 Y96.149 Z0.480 E42.32688
G1 X96.527 Y96.149 Z0.480 E42.33807
G1 X91.149 Y101.527 Z0.480 E42.48922
G1 X91.149 Y100.963 Z0.480 E42.50041
G1 X95.963 Y96.149 Z0.480 E42.63572
G1 X95.400 Y96.149 Z0.480 E42.64691
G1 X91.149 Y100.400 Z0.480 E42.76638
G1 X91.149 Y99.836 Z0.480 E42.77758
G1 X94.836 Y96.149 Z0.480 E42.88122
G1 X94.273 Y96.149 Z0.480 E42.89241
G1 X91.149 Y99.273 Z0.480 E42.98021
G1 X91.149 Y98.710 Z0.480 E42.99141
G1 X93.710 Y96.149 Z0.480 E43.06337
G1 X93.146 Y96.149 Z0.480 E43.07457
G1 X91.149 Y98.146 Z0.480 E43.13070
G1 X91.149 Y97.583 Z0.480 E43.14190
G1 X92.583 Y96.149 Z0.480 E43.18219
G1 X92.020 Y96.149 Z0.480 E43.19339
G1 X91.149 Y97.020 Z0.480 E43.21785
G1 X91.149 Y96.456 Z0.480 E43.22904
G1 X91.456 Y96.149 Z0.480 E43.23767
M106 S244.8
G1 Z0.600 F7800.000
G1 X109.092 Y104.092 Z0.600 F7800.000
G1 F3600
G1 X90.908 Y104.092 Z0.600 E43.59531
G1 X90.908 Y95.908 Z0.600 E43.75627
G1 X109.092 Y95.908 Z0.600 E44.11391
G1 X109.092 Y104.047 Z0.600 E44.27398
G1 X109.486 Y104.486 Z0.600 F7800.000
G1 F3600
G1 X90.514 Y104.486 Z0.600 E44.64713
G1 X90.514 Y95.514 Z0.600 E44.82359
G1 X109.486 Y95.514 Z0.600 E45.19674
G1 X109.486 Y104.441 Z0.600 E45.37232
G1 X109.835 Y104.835 Z0.600 F7800.000
G1 F1800
G1 X90.165 Y104.835 Z0.600 E45.67089
G1 X90.165 Y95.165 Z0.600 E45.81767
G1 X109.835 Y95.165 Z0.600 E46.11624
G1 X109.835 Y104.790 Z0.600 E46.26234
G1 X109.538 Y104.789 F7800.000
G1 X108.442 Y103.917 Z0.600 F7800.000
G1 F4800
G1 X108.773 Y102.681 Z0.600 E46.28464
G1 X108.917 Y103.034 Z0.600 F7800.000
G1 F4800
G1 X106.161 Y103.773 Z0.600 E46.33436
G1 X105.730 Y103.917 Z0.600 F7800.000
G1 F4800
G1 X107.829 Y96.083 Z0.600 E46.47569
G1 X108.917 Y96.255 Z0.600 F7800.000
G1 F4800
G1 X91.083 Y101.033 Z0.600 E46.79740
G1 X91.136 Y102.249 Z0.600 F7800.000
G1 F4800
G1 X92.751 Y103.864 Z0.600 E46.83721
G1 X94.604 Y103.864 Z0.600 E46.86948
G1 X91.136 Y100.396 Z0.600 E46.95494
G1 X91.136 Y98.544 Z0.600 E46.98721
G1 X96.456 Y103.864 Z0.600 E47.11830
G1 X98.308 Y103.864 Z0.600 E47.15057
G1 X91.136 Y96.692 Z0.600 E47.32731
G1 X91.136 Y96.136 Z0.600 E47.33700
G1 X92.431 Y96.136 Z0.600 E47.35958
G1 X100.160 Y103.864 Z0.600 E47.55003
G1 X102.012 Y103.864 Z0.600 E47.58230
G1 X94.283 Y96.136 Z0.600 E47.77274
G1 X96.136 Y96.136 Z0.600 E47.80502
G1 X103.864 Y103.864 Z0.600 E47.99546
G1 X105.717 Y103.864 Z0.600 E48.02773
G1 X97.988 Y96.136 Z0.600 E48.21818
G1 X99.840 Y96.136 Z0.600 E48.25045
G1 X107.569 Y103.864 Z0.600 E48.44090
G1 X108.864 Y103.864 Z0.600 E48.46347
G1 X108.864 Y103.308 Z0.600 E48.47317
G1 X101.692 Y96.136 Z0.600 E48.64990
G1 X103.544 Y96.136 Z0.600 E48.68217
G1 X108.864 Y101.456 Z0.600 E48.81327
G1 X108.864 Y99.604 Z0.600 E48.84554
G1 X105.396 Y96.136 Z0.600 E48.93099
G1 X107.249 Y96.136 Z0.600 E48.96327
G1 X108.864 Y97.751 Z0.600 E49.00308
G1 X108.917 Y97.611 Z0.600 F7800.000
G1 F4800
G1 X91.083 Y102.389 Z0.600 E49.32479
G1 X91.227 Y102.379 Z0.600 F7800.000
G1 F4800
G1 X92.914 Y96.083 Z0.600 E49.43837
G1 X93.839 Y96.227 Z0.600 F7800.000
G1 F4800
G1 X91.083 Y96.966 Z0.600 E49.48809
G1 X91.227 Y97.319 Z0.600 F7800.000
G1 F4800
G1 X91.558 Y96.083 Z0.600 E49.51038
G1 X91.083 Y98.322 Z0.600 F7800.000
G1 F4800
G1 X98.899 Y96.227 Z0.600 E49.65139
G1 X98.338 Y96.083 Z0.600 F7800.000
G1 F4800
G1 X96.239 Y103.917 Z0.600 E49.79271
G1 X96.040 Y103.773 Z0.600 F7800.000
G1 F4800
G1 X108.917 Y100.322 Z0.600 E50.02499
G1 X108.917 Y98.967 Z0.600 F7800.000
G1 F4800
G1 X91.083 Y103.745 Z0.600 E50.34670
G1 X92.171 Y103.917 Z0.600 F7800.000
G1 F4800
G1 X94.270 Y96.083 Z0.600 E50.48803
