; generated by Slic3r 1.3.0-dev on 2023-04-23 at 19:11:30

; external perimeters extrusion width = 0.55mm (4.37mm^3/s)
; perimeters extrusion width = 0.70mm (11.44mm^3/s)
; infill extrusion width = 0.62mm (13.45mm^3/s)
; solid infill extrusion width = 0.70mm (3.81mm^3/s)
; top infill extrusion width = 0.70mm (2.86mm^3/s)

M107
M104 S200 ; set temperature
G28 ; home all axes
G1 Z5 F5000 ; lift nozzle

; Filament gcode

M109 S200 ; set temperature and wait for it to be reached
G21 ; set units to millimeters
G90 ; use absolute coordinates
M82 ; use absolute distances for extrusion
G92 E0
G1 Z0.350 F7800.000
G1 E-2.00000 F2400.00000
G92 E0
G1 X58.915 Y56.753 Z0.350 F7800.000
G1 E2.00000 F2400.00000
G1 F1800
G1 X60.668 Y55.274 Z0.350 E2.07096
G1 X62.820 Y54.481 Z0.350 E2.14192
G1 X64.000 Y54.375 Z0.350 E2.17858
G1 X136.000 Y54.375 Z0.350 E4.40635
G1 X138.259 Y54.772 Z0.350 E4.47731
G1 X140.247 Y55.915 Z0.350 E4.54827
G1 X141.726 Y57.668 Z0.350 E4.61924
G1 X142.519 Y59.820 Z0.350 E4.69020
G1 X142.625 Y61.000 Z0.350 E4.72685
G1 X142.625 Y118.000 Z0.350 E6.49051
G1 X142.228 Y120.259 Z0.350 E6.56147
G1 X141.085 Y122.247 Z0.350 E6.63243
G1 X140.163 Y123.154 Z0.350 E6.67244
G1 X114.163 Y144.154 Z0.350 E7.70655
G1 X112.156 Y145.264 Z0.350 E7.77751
G1 X110.000 Y145.625 Z0.350 E7.84515
G1 X90.000 Y145.625 Z0.350 E8.46397
G1 X87.741 Y145.228 Z0.350 E8.53494
G1 X85.837 Y144.154 Z0.350 E8.60257
G1 X59.837 Y123.154 Z0.350 E9.63668
G1 X58.330 Y121.426 Z0.350 E9.70764
G1 X57.501 Y119.287 Z0.350 E9.77860
G1 X57.375 Y118.000 Z0.350 E9.81861
G1 X57.375 Y61.000 Z0.350 E11.58227
G1 X57.772 Y58.741 Z0.350 E11.65323
G1 X58.878 Y56.818 Z0.350 E11.72187
G1 E9.72187 F2400.00000
G92 E0
G1 X108.400 Y137.400 Z0.350 F7800.000
G1 E2.00000 F2400.00000
G1 F1800
G1 X91.600 Y137.400 Z0.350 E2.51983
G1 X91.600 Y125.600 Z0.350 E2.88495
G1 X108.400 Y125.600 Z0.350 E3.40478
G1 X108.400 Y137.325 Z0.350 E3.76758
G1 X109.025 Y138.025 Z0.350 F7800.000
G1 F1800
G1 X90.975 Y138.025 Z0.350 E4.32608
G1 X90.975 Y124.975 Z0.350 E4.72987
G1 X109.025 Y124.975 Z0.350 E5.28836
G1 X109.025 Y137.950 Z0.350 E5.68983
G1 X109.650 Y138.650 Z0.350 F7800.000
G1 F1800
G1 X90.350 Y138.650 Z0.350 E6.28700
G1 X90.350 Y124.350 Z0.350 E6.72946
G1 X109.650 Y124.350 Z0.350 E7.32663
G1 X109.650 Y138.575 Z0.350 E7.76677
G1 X109.161 Y138.545 F7800.000
G1 E5.76677 F2400.00000
G92 E0
G1 X107.532 Y137.018 Z0.350 F7800.000
G1 E2.00000 F2400.00000
G1 F1800
G1 X108.018 Y136.532 Z0.350 E2.02167
G1 X108.018 Y135.632 Z0.350 E2.05003
G1 X106.632 Y137.018 Z0.350 E2.11181
G1 X105.732 Y137.018 Z0.350 E2.14017
G1 X108.018 Y134.732 Z0.350 E2.24206
G1 X108.018 Y133.832 Z0.350 E2.27042
G1 X104.832 Y137.018 Z0.350 E2.41242
G1 X103.932 Y137.018 Z0.350 E2.44078
G1 X108.018 Y132.932 Z0.350 E2.62289
G1 X108.018 Y132.032 Z0.350 E2.65125
G1 X103.032 Y137.018 Z0.350 E2.87347
G1 X102.132 Y137.018 Z0.350 E2.90183
G1 X108.018 Y131.132 Z0.350 E3.16416
G1 X108.018 Y130.232 Z0.350 E3.19253
G1 X101.232 Y137.018 Z0.350 E3.49497
G1 X100.332 Y137.018 Z0.350 E3.52333
G1 X108.018 Y129.332 Z0.350 E3.86588
G1 X108.018 Y128.432 Z0.350 E3.89424
G1 X99.432 Y137.018 Z0.350 E4.27690
G1 X98.532 Y137.018 Z0.350 E4.30527
G1 X108.018 Y127.532 Z0.350 E4.72804
G1 X108.018 Y126.632 Z0.350 E4.75640
G1 X97.632 Y137.018 Z0.350 E5.21928
G1 X96.732 Y137.018 Z0.350 E5.24764
G1 X107.768 Y125.982 Z0.350 E5.73950
G1 X106.868 Y125.982 Z0.350 E5.76786
G1 X95.832 Y137.018 Z0.350 E6.25972
G1 X94.932 Y137.018 Z0.350 E6.28808
G1 X105.968 Y125.982 Z0.350 E6.77994
G1 X105.068 Y125.982 Z0.350 E6.80830
G1 X94.032 Y137.018 Z0.350 E7.30016
G1 X93.132 Y137.018 Z0.350 E7.32852
G1 X104.168 Y125.982 Z0.350 E7.82037
G1 X103.268 Y125.982 Z0.350 E7.84874
G1 X92.232 Y137.018 Z0.350 E8.34059
G1 X91.982 Y137.018 Z0.350 E8.34847
G1 X91.982 Y136.368 Z0.350 E8.36895
G1 X102.368 Y125.982 Z0.350 E8.83184
G1 X101.468 Y125.982 Z0.350 E8.86020
G1 X91.982 Y135.468 Z0.350 E9.28297
G1 X91.982 Y134.568 Z0.350 E9.31134
G1 X100.568 Y125.982 Z0.350 E9.69400
G1 X99.668 Y125.982 Z0.350 E9.72236
G1 X91.982 Y133.668 Z0.350 E10.06491
G1 X91.982 Y132.768 Z0.350 E10.09328
G1 X98.768 Y125.982 Z0.350 E10.39572
G1 X97.868 Y125.982 Z0.350 E10.42408
G1 X91.982 Y131.868 Z0.350 E10.68641
G1 X91.982 Y130.968 Z0.350 E10.71477
G1 X96.968 Y125.982 Z0.350 E10.93699
G1 X96.068 Y125.982 Z0.350 E10.96536
G1 X91.982 Y130.068 Z0.350 E11.14747
G1 X91.982 Y129.168 Z0.350 E11.17583
G1 X95.168 Y125.982 Z0.350 E11.31783
G1 X94.268 Y125.982 Z0.350 E11.34619
G1 X91.982 Y128.268 Z0.350 E11.44808
G1 X91.982 Y127.368 Z0.350 E11.47644
G1 X93.368 Y125.982 Z0.350 E11.53822
G1 X92.468 Y125.982 Z0.350 E11.56658
G1 X91.982 Y126.468 Z0.350 E11.58825
G1 Z0.350 F7800.000
G1 E9.58825 F2400.00000
G92 E0
G1 X91.600 Y116.400 Z0.350 F7800.000
G1 E2.00000 F2400.00000
G1 F1800
G1 X91.600 Y104.600 Z0.350 E2.36512
G1 X108.400 Y104.600 Z0.350 E2.88495
G1 X108.400 Y116.400 Z0.350 E3.25007
G1 X91.675 Y116.400 Z0.350 E3.76758
G1 X90.975 Y117.025 Z0.350 F7800.000
G1 F1800
G1 X90.975 Y103.975 Z0.350 E4.17137
G1 X109.025 Y103.975 Z0.350 E4.72987
G1 X109.025 Y117.025 Z0.350 E5.13366
G1 X91.050 Y117.025 Z0.350 E5.68983
G1 X90.350 Y117.650 Z0.350 F7800.000
G1 F1800
G1 X90.350 Y103.350 Z0.350 E6.13230
G1 X109.650 Y103.350 Z0.350 E6.72946
G1 X109.650 Y117.650 Z0.350 E7.17192
G1 X90.425 Y117.650 Z0.350 E7.76677
G1 X90.503 Y117.174 F7800.000
G1 E5.76677 F2400.00000
G92 E0
G1 X91.982 Y105.468 Z0.350 F7800.000
G1 E2.00000 F2400.00000
G1 F1800
G1 X92.468 Y104.982 Z0.350 E2.02166
G1 X93.368 Y104.982 Z0.350 E2.05002
G1 X91.982 Y106.368 Z0.350 E2.11180
G1 X91.982 Y107.268 Z0.350 E2.14016
G1 X94.268 Y104.982 Z0.350 E2.24205
G1 X95.168 Y104.982 Z0.350 E2.27042
G1 X91.982 Y108.168 Z0.350 E2.41242
G1 X91.982 Y109.068 Z0.350 E2.44078
G1 X96.068 Y104.982 Z0.350 E2.62289
G1 X96.968 Y104.982 Z0.350 E2.65125
G1 X91.982 Y109.968 Z0.350 E2.87347
G1 X91.982 Y110.868 Z0.350 E2.90184
G1 X97.868 Y104.982 Z0.350 E3.16417
G1 X98.768 Y104.982 Z0.350 E3.19253
G1 X91.982 Y111.768 Z0.350 E3.49497
G1 X91.982 Y112.668 Z0.350 E3.52333
G1 X99.668 Y104.982 Z0.350 E3.86589
G1 X100.568 Y104.982 Z0.350 E3.89425
G1 X91.982 Y113.568 Z0.350 E4.27691
G1 X91.982 Y114.468 Z0.350 E4.30527
G1 X101.468 Y104.982 Z0.350 E4.72805
G1 X102.368 Y104.982 Z0.350 E4.75641
G1 X91.982 Y115.368 Z0.350 E5.21929
G1 X91.982 Y116.018 Z0.350 E5.23978
G1 X92.232 Y116.018 Z0.350 E5.24765
G1 X103.268 Y104.982 Z0.350 E5.73951
G1 X104.168 Y104.982 Z0.350 E5.76787
G1 X93.132 Y116.018 Z0.350 E6.25973
G1 X94.032 Y116.018 Z0.350 E6.28809
G1 X105.068 Y104.982 Z0.350 E6.77995
G1 X105.968 Y104.982 Z0.350 E6.80831
G1 X94.932 Y116.018 Z0.350 E7.30017
G1 X95.832 Y116.018 Z0.350 E7.32853
G1 X106.868 Y104.982 Z0.350 E7.82038
G1 X107.768 Y104.982 Z0.350 E7.84875
G1 X96.732 Y116.018 Z0.350 E8.34060
G1 X97.632 Y116.018 Z0.350 E8.36896
G1 X108.018 Y105.632 Z0.350 E8.83185
G1 X108.018 Y106.532 Z0.350 E8.86021
G1 X98.532 Y116.018 Z0.350 E9.28298
G1 X99.432 Y116.018 Z0.350 E9.31134
G1 X108.018 Y107.432 Z0.350 E9.69400
G1 X108.018 Y108.332 Z0.350 E9.72237
G1 X100.332 Y116.018 Z0.350 E10.06492
G1 X101.232 Y116.018 Z0.350 E10.09328
G1 X108.018 Y109.232 Z0.350 E10.39572
G1 X108.018 Y110.132 Z0.350 E10.42408
G1 X102.132 Y116.018 Z0.350 E10.68641
G1 X103.032 Y116.018 Z0.350 E10.71477
G1 X108.018 Y111.032 Z0.350 E10.93699
G1 X108.018 Y111.932 Z0.350 E10.96536
G1 X103.932 Y116.018 Z0.350 E11.14746
G1 X104.832 Y116.018 Z0.350 E11.17583
G1 X108.018 Y112.832 Z0.350 E11.31783
G1 X108.018 Y113.732 Z0.350 E11.34619
G1 X105.732 Y116.018 Z0.350 E11.44808
G1 X106.632 Y116.018 Z0.350 E11.47644
G1 X108.018 Y114.632 Z0.350 E11.53822
G1 X108.018 Y115.532 Z0.350 E11.56658
G1 X107.532 Y116.018 Z0.350 E11.58825
G1 Z0.350 F7800.000
G1 E9.58825 F2400.00000
G92 E0
G1 X108.400 Y95.400 Z0.350 F7800.000
G1 E2.00000 F2400.00000
G1 F1800
G1 X91.600 Y95.400 Z0.350 E2.51983
G1 X91.600 Y83.600 Z0.350 E2.88495
G1 X108.400 Y83.600 Z0.350 E3.40478
G1 X108.400 Y95.325 Z0.350 E3.76758
G1 X109.025 Y96.025 Z0.350 F7800.000
G1 F1800
G1 X90.975 Y96.025 Z0.350 E4.32608
G1 X90.975 Y82.975 Z0.350 E4.72987
G1 X109.025 Y82.975 Z0.350 E5.28836
G1 X109.025 Y95.950 Z0.350 E5.68983
G1 X109.650 Y96.650 Z0.350 F7800.000
G1 F1800
G1 X90.350 Y96.650 Z0.350 E6.28700
G1 X90.350 Y82.350 Z0.350 E6.72946
G1 X109.650 Y82.350 Z0.350 E7.32663
G1 X109.650 Y96.575 Z0.350 E7.76677
G1 X109.161 Y96.545 F7800.000
G1 E5.76677 F2400.00000
G92 E0
G1 X107.532 Y95.018 Z0.350 F7800.000
G1 E2.00000 F2400.00000
G1 F1800
G1 X108.018 Y94.532 Z0.350 E2.02167
G1 X108.018 Y93.632 Z0.350 E2.05003
G1 X106.632 Y95.018 Z0.350 E2.11181
G1 X105.732 Y95.018 Z0.350 E2.14017
G1 X108.018 Y92.732 Z0.350 E2.24206
G1 X108.018 Y91.832 Z0.350 E2.27042
G1 X104.832 Y95.018 Z0.350 E2.41242
G1 X103.932 Y95.018 Z0.350 E2.44078
G1 X108.018 Y90.932 Z0.350 E2.62289
G1 X108.018 Y90.032 Z0.350 E2.65125
G1 X103.032 Y95.018 Z0.350 E2.87347
G1 X102.132 Y95.018 Z0.350 E2.90183
G1 X108.018 Y89.132 Z0.350 E3.16416
G1 X108.018 Y88.232 Z0.350 E3.19253
G1 X101.232 Y95.018 Z0.350 E3.49497
G1 X100.332 Y95.018 Z0.350 E3.52333
G1 X108.018 Y87.332 Z0.350 E3.86588
G1 X108.018 Y86.432 Z0.350 E3.89424
G1 X99.432 Y95.018 Z0.350 E4.27690
G1 X98.532 Y95.018 Z0.350 E4.30527
G1 X108.018 Y85.532 Z0.350 E4.72804
G1 X108.018 Y84.632 Z0.350 E4.75640
G1 X97.632 Y95.018 Z0.350 E5.21928
G1 X96.732 Y95.018 Z0.350 E5.24764
G1 X107.768 Y83.982 Z0.350 E5.73950
G1 X106.868 Y83.982 Z0.350 E5.76786
G1 X95.832 Y95.018 Z0.350 E6.25972
G1 X94.932 Y95.018 Z0.350 E6.28808
G1 X105.968 Y83.982 Z0.350 E6.77994
G1 X105.068 Y83.982 Z0.350 E6.80830
G1 X94.032 Y95.018 Z0.350 E7.30016
G1 X93.132 Y95.018 Z0.350 E7.32852
G1 X104.168 Y83.982 Z0.350 E7.82037
G1 X103.268 Y83.982 Z0.350 E7.84874
G1 X92.232 Y95.018 Z0.350 E8.34059
G1 X91.982 Y95.018 Z0.350 E8.34847
G1 X91.982 Y94.368 Z0.350 E8.36895
G1 X102.368 Y83.982 Z0.350 E8.83184
G1 X101.468 Y83.982 Z0.350 E8.86020
G1 X91.982 Y93.468 Z0.350 E9.28297
G1 X91.982 Y92.568 Z0.350 E9.31134
G1 X100.568 Y83.982 Z0.350 E9.69400
G1 X99.668 Y83.982 Z0.350 E9.72236
G1 X91.982 Y91.668 Z0.350 E10.06491
G1 X91.982 Y90.768 Z0.350 E10.09328
G1 X98.768 Y83.982 Z0.350 E10.39572
G1 X97.868 Y83.982 Z0.350 E10.42408
G1 X91.982 Y89.868 Z0.350 E10.68641
G1 X91.982 Y88.968 Z0.350 E10.71477
G1 X96.968 Y83.982 Z0.350 E10.93699
G1 X96.068 Y83.982 Z0.350 E10.96536
G1 X91.982 Y88.068 Z0.350 E11.14747
G1 X91.982 Y87.168 Z0.350 E11.17583
G1 X95.168 Y83.982 Z0.350 E11.31783
G1 X94.268 Y83.982 Z0.350 E11.34619
G1 X91.982 Y86.268 Z0.350 E11.44808
G1 X91.982 Y85.368 Z0.350 E11.47644
G1 X93.368 Y83.982 Z0.350 E11.53822
G1 X92.468 Y83.982 Z0.350 E11.56658
G1 X91.982 Y84.468 Z0.350 E11.58825
G1 Z0.350 F7800.000
G1 E9.58825 F2400.00000
G92 E0
G1 X91.600 Y74.400 Z0.350 F7800.000
G1 E2.00000 F2400.00000
G1 F1800
G1 X91.600 Y62.600 Z0.350 E2.36512
G1 X108.400 Y62.600 Z0.350 E2.88495
G1 X108.400 Y74.400 Z0.350 E3.25007
G1 X91.675 Y74.400 Z0.350 E3.76758
G1 X90.975 Y75.025 Z0.350 F7800.000
G1 F1800
G1 X90.975 Y61.975 Z0.350 E4.17137
G1 X109.025 Y61.975 Z0.350 E4.72987
G1 X109.025 Y75.025 Z0.350 E5.13366
G1 X91.050 Y75.025 Z0.350 E5.68983
G1 X90.350 Y75.650 Z0.350 F7800.000
G1 F1800
G1 X90.350 Y61.350 Z0.350 E6.13230
G1 X109.650 Y61.350 Z0.350 E6.72946
G1 X109.650 Y75.650 Z0.350 E7.17192
G1 X90.425 Y75.650 Z0.350 E7.76677
G1 X90.503 Y75.174 F7800.000
G1 E5.76677 F2400.00000
G92 E0
G1 X91.982 Y63.468 Z0.350 F7800.000
G1 E2.00000 F2400.00000
G1 F1800
G1 X92.468 Y62.982 Z0.350 E2.02166
G1 X93.368 Y62.982 Z0.350 E2.05002
G1 X91.982 Y64.368 Z0.350 E2.11180
G1 X91.982 Y65.268 Z0.350 E2.14016
G1 X94.268 Y62.982 Z0.350 E2.24205
G1 X95.168 Y62.982 Z0.350 E2.27042
G1 X91.982 Y66.168 Z0.350 E2.41242
G1 X91.982 Y67.068 Z0.350 E2.44078
G1 X96.068 Y62.982 Z0.350 E2.62289
G1 X96.968 Y62.982 Z0.350 E2.65125
G1 X91.982 Y67.968 Z0.350 E2.87347
G1 X91.982 Y68.868 Z0.350 E2.90184
G1 X97.868 Y62.982 Z0.350 E3.16417
G1 X98.768 Y62.982 Z0.350 E3.19253
G1 X91.982 Y69.768 Z0.350 E3.49497
G1 X91.982 Y70.668 Z0.350 E3.52333
G1 X99.668 Y62.982 Z0.350 E3.86589
G1 X100.568 Y62.982 Z0.350 E3.89425
G1 X91.982 Y71.568 Z0.350 E4.27691
G1 X91.982 Y72.468 Z0.350 E4.30527
G1 X101.468 Y62.982 Z0.350 E4.72805
G1 X102.368 Y62.982 Z0.350 E4.75641
G1 X91.982 Y73.368 Z0.350 E5.21929
G1 X91.982 Y74.018 Z0.350 E5.23978
G1 X92.232 Y74.018 Z0.350 E5.24765
G1 X103.268 Y62.982 Z0.350 E5.73951
G1 X104.168 Y62.982 Z0.350 E5.76787
G1 X93.132 Y74.018 Z0.350 E6.25973
G1 X94.032 Y74.018 Z0.350 E6.28809
G1 X105.068 Y62.982 Z0.350 E6.77995
G1 X105.968 Y62.982 Z0.350 E6.80831
G1 X94.932 Y74.018 Z0.350 E7.30017
G1 X95.832 Y74.018 Z0.350 E7.32853
G1 X106.868 Y62.982 Z0.350 E7.82038
G1 X107.768 Y62.982 Z0.350 E7.84875
G1 X96.732 Y74.018 Z0.350 E8.34060
G1 X97.632 Y74.018 Z0.350 E8.36896
G1 X108.018 Y63.632 Z0.350 E8.83185
G1 X108.018 Y64.532 Z0.350 E8.86021
G1 X98.532 Y74.018 Z0.350 E9.28298
G1 X99.432 Y74.018 Z0.350 E9.31134
G1 X108.018 Y65.432 Z0.350 E9.69400
G1 X108.018 Y66.332 Z0.350 E9.72237
G1 X100.332 Y74.018 Z0.350 E10.06492
G1 X101.232 Y74.018 Z0.350 E10.09328
G1 X108.018 Y67.232 Z0.350 E10.39572
G1 X108.018 Y68.132 Z0.350 E10.42408
G1 X102.132 Y74.018 Z0.350 E10.68641
G1 X103.032 Y74.018 Z0.350 E10.71477
G1 X108.018 Y69.032 Z0.350 E10.93699
G1 X108.018 Y69.932 Z0.350 E10.96536
G1 X103.932 Y74.018 Z0.350 E11.14746
G1 X104.832 Y74.018 Z0.350 E11.17583
G1 X108.018 Y70.832 Z0.350 E11.31783
G1 X108.018 Y71.732 Z0.350 E11.34619
G1 X105.732 Y74.018 Z0.350 E11.44808
G1 X106.632 Y74.018 Z0.350 E11.47644
G1 X108.018 Y72.632 Z0.350 E11.53822
G1 X108.018 Y73.532 Z0.350 E11.56658
G1 X107.532 Y74.018 Z0.350 E11.58825
G1 Z0.350 F7800.000
G1 E9.58825 F2400.00000
G92 E0
G1 X117.600 Y74.400 Z0.350 F7800.000
G1 E2.00000 F2400.00000
G1 F1800
G1 X117.600 Y62.600 Z0.350 E2.36512
G1 X134.400 Y62.600 Z0.350 E2.88495
G1 X134.400 Y74.400 Z0.350 E3.25007
G1 X117.675 Y74.400 Z0.350 E3.76758
G1 X116.975 Y75.025 Z0.350 F7800.000
G1 F1800
G1 X116.975 Y61.975 Z0.350 E4.17137
G1 X135.025 Y61.975 Z0.350 E4.72987
G1 X135.025 Y75.025 Z0.350 E5.13366
G1 X117.050 Y75.025 Z0.350 E5.68983
G1 X116.350 Y75.650 Z0.350 F7800.000
G1 F1800
G1 X116.350 Y61.350 Z0.350 E6.13230
G1 X135.650 Y61.350 Z0.350 E6.72946
G1 X135.650 Y75.650 Z0.350 E7.17192
G1 X116.425 Y75.650 Z0.350 E7.76677
G1 X116.503 Y75.174 F7800.000
G1 E5.76677 F2400.00000
G92 E0
G1 X117.982 Y63.468 Z0.350 F7800.000
G1 E2.00000 F2400.00000
G1 F1800
G1 X118.468 Y62.982 Z0.350 E2.02166
G1 X119.368 Y62.982 Z0.350 E2.05002
G1 X117.982 Y64.368 Z0.350 E2.11180
G1 X117.982 Y65.268 Z0.350 E2.14016
G1 X120.268 Y62.982 Z0.350 E2.24205
G1 X121.168 Y62.982 Z0.350 E2.27042
G1 X117.982 Y66.168 Z0.350 E2.41242
G1 X117.982 Y67.068 Z0.350 E2.44078
G1 X122.068 Y62.982 Z0.350 E2.62289
G1 X122.968 Y62.982 Z0.350 E2.65125
G1 X117.982 Y67.968 Z0.350 E2.87347
G1 X117.982 Y68.868 Z0.350 E2.90184
G1 X123.868 Y62.982 Z0.350 E3.16417
G1 X124.768 Y62.982 Z0.350 E3.19253
G1 X117.982 Y69.768 Z0.350 E3.49497
G1 X117.982 Y70.668 Z0.350 E3.52333
G1 X125.668 Y62.982 Z0.350 E3.86589
G1 X126.568 Y62.982 Z0.350 E3.89425
G1 X117.982 Y71.568 Z0.350 E4.27691
G1 X117.982 Y72.468 Z0.350 E4.30527
G1 X127.468 Y62.982 Z0.350 E4.72805
G1 X128.368 Y62.982 Z0.350 E4.75641
G1 X117.982 Y73.368 Z0.350 E5.21929
G1 X117.982 Y74.018 Z0.350 E5.23978
G1 X118.232 Y74.018 Z0.350 E5.24765
G1 X129.268 Y62.982 Z0.350 E5.73951
G1 X130.168 Y62.982 Z0.350 E5.76787
G1 X119.132 Y74.018 Z0.350 E6.25973
G1 X120.032 Y74.018 Z0.350 E6.28809
G1 X131.068 Y62.982 Z0.350 E6.77995
G1 X131.968 Y62.982 Z0.350 E6.80831
G1 X120.932 Y74.018 Z0.350 E7.30017
G1 X121.832 Y74.018 Z0.350 E7.32853
G1 X132.868 Y62.982 Z0.350 E7.82038
G1 X133.768 Y62.982 Z0.350 E7.84875
G1 X122.732 Y74.018 Z0.350 E8.34060
G1 X123.632 Y74.018 Z0.350 E8.36896
G1 X134.018 Y63.632 Z0.350 E8.83185
G1 X134.018 Y64.532 Z0.350 E8.86021
G1 X124.532 Y74.018 Z0.350 E9.28298
G1 X125.432 Y74.018 Z0.350 E9.31134
G1 X134.018 Y65.432 Z0.350 E9.69400
G1 X134.018 Y66.332 Z0.350 E9.72237
G1 X126.332 Y74.018 Z0.350 E10.06492
G1 X127.232 Y74.018 Z0.350 E10.09328
G1 X134.018 Y67.232 Z0.350 E10.39572
G1 X134.018 Y68.132 Z0.350 E10.42408
G1 X128.132 Y74.018 Z0.350 E10.68641
G1 X129.032 Y74.018 Z0.350 E10.71477
