; generated by Slic3r 1.3.0-dev on 2023-04-26 at 21:36:24

; external perimeters extrusion width = 0.55mm (4.37mm^3/s)
; perimeters extrusion width = 0.70mm (11.44mm^3/s)
; infill extrusion width = 0.62mm (13.45mm^3/s)
; solid infill extrusion width = 0.70mm (3.81mm^3/s)
; top infill extrusion width = 0.70mm (2.86mm^3/s)

M107
M104 S200 ; set temperature
G28 ; home all axes
G1 Z5 F5000 ; lift nozzle

; Filament gcode

M109 S200 ; set temperature and wait for it to be reached
G21 ; set units to millimeters
G90 ; use absolute coordinates
M82 ; use absolute distances for extrusion
G92 E0
G1 Z0.350 F7800.000
G1 E-2.00000 F2400.00000
G92 E0
G1 X84.915 Y88.253 Z0.350 F7800.000
G1 E2.00000 F2400.00000
G1 F1800
G1 X86.668 Y86.774 Z0.350 E2.20854
G1 X88.820 Y85.981 Z0.350 E2.41708
G1 X90.000 Y85.875 Z0.350 E2.52479
G1 X110.000 Y85.875 Z0.350 E4.34339
G1 X112.259 Y86.272 Z0.350 E4.55193
G1 X114.247 Y87.415 Z0.350 E4.76047
G1 X115.726 Y89.168 Z0.350 E4.96901
G1 X116.519 Y91.320 Z0.350 E5.17755
G1 X116.625 Y92.500 Z0.350 E5.28526
G1 X116.625 Y107.500 Z0.350 E6.64921
G1 X116.228 Y109.759 Z0.350 E6.85775
G1 X115.085 Y111.747 Z0.350 E7.06629
G1 X113.332 Y113.226 Z0.350 E7.27483
G1 X111.180 Y114.019 Z0.350 E7.48338
G1 X110.000 Y114.125 Z0.350 E7.59109
G1 X90.000 Y114.125 Z0.350 E9.40968
G1 X87.741 Y113.728 Z0.350 E9.61822
G1 X85.753 Y112.585 Z0.350 E9.82676
G1 X84.274 Y110.832 Z0.350 E10.03530
G1 X83.481 Y108.680 Z0.350 E10.24385
G1 X83.375 Y107.500 Z0.350 E10.35156
G1 X83.375 Y92.500 Z0.350 E11.71550
G1 X83.772 Y90.241 Z0.350 E11.92404
G1 X84.878 Y88.318 Z0.350 E12.12576
G1 E10.12576 F2400.00000
G92 E0
G1 X108.400 Y105.900 Z0.350 F7800.000
G1 E2.00000 F2400.00000
G1 F1800
G1 X91.600 Y105.900 Z0.350 E3.52766
G1 X91.600 Y94.100 Z0.350 E4.60067
G1 X108.400 Y94.100 Z0.350 E6.12833
G1 X108.400 Y105.825 Z0.350 E7.19452
G1 X109.025 Y106.525 Z0.350 F7800.000
G1 F1800
G1 X90.975 Y106.525 Z0.350 E8.83582
G1 X90.975 Y93.475 Z0.350 E10.02248
G1 X109.025 Y93.475 Z0.350 E11.66378
G1 X109.025 Y106.450 Z0.350 E12.84361
G1 X109.650 Y107.150 Z0.350 F7800.000
G1 F1800
G1 X90.350 Y107.150 Z0.350 E14.59855
G1 X90.350 Y92.850 Z0.350 E15.89885
G1 X109.650 Y92.850 Z0.350 E17.65379
G1 X109.650 Y107.075 Z0.350 E18.94727
G1 X109.161 Y107.045 F7800.000
G1 E16.94727 F2400.00000
G92 E0
G1 X107.532 Y105.518 Z0.350 F7800.000
G1 E2.00000 F2400.00000
G1 F1800
G1 X108.018 Y105.032 Z0.350 E2.06368
G1 X108.018 Y104.132 Z0.350 E2.14703
G1 X106.632 Y105.518 Z0.350 E2.32858
G1 X105.732 Y105.518 Z0.350 E2.41193
G1 X108.018 Y103.232 Z0.350 E2.71136
G1 X108.018 Y102.332 Z0.350 E2.79471
G1 X104.832 Y105.518 Z0.350 E3.21201
G1 X103.932 Y105.518 Z0.350 E3.29536
G1 X108.018 Y101.432 Z0.350 E3.83054
G1 X108.018 Y100.532 Z0.350 E3.91389
G1 X103.032 Y105.518 Z0.350 E4.56694
G1 X102.132 Y105.518 Z0.350 E4.65030
G1 X108.018 Y99.632 Z0.350 E5.42123
G1 X108.018 Y98.732 Z0.350 E5.50458
G1 X101.232 Y105.518 Z0.350 E6.39338
G1 X100.332 Y105.518 Z0.350 E6.47673
G1 X108.018 Y97.832 Z0.350 E7.48342
G1 X108.018 Y96.932 Z0.350 E7.56677
G1 X99.432 Y105.518 Z0.350 E8.69133
G1 X98.532 Y105.518 Z0.350 E8.77468
G1 X108.018 Y96.032 Z0.350 E10.01711
G1 X108.018 Y95.132 Z0.350 E10.10046
G1 X97.632 Y105.518 Z0.350 E11.46077
G1 X96.732 Y105.518 Z0.350 E11.54412
G1 X107.769 Y94.482 Z0.350 E12.98958
G1 X106.868 Y94.482 Z0.350 E13.07293
G1 X95.832 Y105.518 Z0.350 E14.51839
G1 X94.932 Y105.518 Z0.350 E14.60175
G1 X105.968 Y94.482 Z0.350 E16.04720
G1 X105.068 Y94.482 Z0.350 E16.13056
G1 X94.032 Y105.518 Z0.350 E17.57602
G1 X93.132 Y105.518 Z0.350 E17.65937
G1 X104.168 Y94.482 Z0.350 E19.10483
G1 X103.268 Y94.482 Z0.350 E19.18818
G1 X92.232 Y105.518 Z0.350 E20.63364
G1 X91.982 Y105.518 Z0.350 E20.65678
G1 X91.982 Y104.868 Z0.350 E20.71699
G1 X102.368 Y94.482 Z0.350 E22.07730
G1 X101.468 Y94.482 Z0.350 E22.16065
G1 X91.982 Y103.968 Z0.350 E23.40309
G1 X91.982 Y103.068 Z0.350 E23.48644
G1 X100.568 Y94.482 Z0.350 E24.61101
G1 X99.668 Y94.482 Z0.350 E24.69436
G1 X91.982 Y102.168 Z0.350 E25.70104
G1 X91.982 Y101.268 Z0.350 E25.78439
G1 X98.768 Y94.482 Z0.350 E26.67321
G1 X97.868 Y94.482 Z0.350 E26.75656
G1 X91.982 Y100.368 Z0.350 E27.52749
G1 X91.982 Y99.468 Z0.350 E27.61084
G1 X96.968 Y94.482 Z0.350 E28.26390
G1 X96.068 Y94.482 Z0.350 E28.34725
G1 X91.982 Y98.568 Z0.350 E28.88243
G1 X91.982 Y97.668 Z0.350 E28.96579
G1 X95.168 Y94.482 Z0.350 E29.38309
G1 X94.268 Y94.482 Z0.350 E29.46644
G1 X91.982 Y96.768 Z0.350 E29.76588
G1 X91.982 Y95.868 Z0.350 E29.84923
G1 X93.368 Y94.482 Z0.350 E30.03078
G1 X92.468 Y94.482 Z0.350 E30.11413
G1 X91.982 Y94.968 Z0.350 E30.17779
G1 Z0.650 F7800.000
G1 X108.529 Y106.029 Z0.650 F7800.000
G1 F3600
G1 X91.471 Y106.029 Z0.650 E31.53008
G1 X91.471 Y93.971 Z0.650 E32.48597
G1 X108.529 Y93.971 Z0.650 E33.83826
G1 X108.529 Y105.954 Z0.650 E34.78821
G1 X109.164 Y106.664 Z0.650 F7800.000
G1 F3600
G1 X90.836 Y106.664 Z0.650 E36.24128
G1 X90.836 Y93.336 Z0.650 E37.29796
G1 X109.164 Y93.336 Z0.650 E38.75103
G1 X109.164 Y106.589 Z0.650 E39.80176
G1 X109.725 Y107.225 Z0.650 F7800.000
G1 F1800
G1 X90.275 Y107.225 Z0.650 E40.97983
G1 X90.275 Y92.775 Z0.650 E41.85506
G1 X109.725 Y92.775 Z0.650 E43.03313
G1 X109.725 Y107.150 Z0.650 E43.90381
G1 X109.236 Y107.119 F7800.000
G1 X108.140 Y94.854 Z0.650 F7800.000
G1 F1200
G1 X107.646 Y94.360 Z0.650 E43.96033
G1 X106.730 Y94.360 Z0.650 E44.03437
G1 X108.140 Y95.770 Z0.650 E44.19561
G1 X108.140 Y96.687 Z0.650 E44.26966
G1 X105.813 Y94.360 Z0.650 E44.53561
G1 X104.897 Y94.360 Z0.650 E44.60966
G1 X108.140 Y97.603 Z0.650 E44.98033
G1 X108.140 Y98.519 Z0.650 E45.05437
G1 X103.981 Y94.360 Z0.650 E45.52976
G1 X103.064 Y94.360 Z0.650 E45.60381
G1 X108.140 Y99.436 Z0.650 E46.18392
G1 X108.140 Y100.352 Z0.650 E46.25796
G1 X102.148 Y94.360 Z0.650 E46.94279
G1 X101.232 Y94.360 Z0.650 E47.01683
G1 X108.140 Y101.268 Z0.650 E47.80637
G1 X108.140 Y102.184 Z0.650 E47.88042
G1 X100.316 Y94.360 Z0.650 E48.77468
G1 X99.399 Y94.360 Z0.650 E48.84873
G1 X108.140 Y103.101 Z0.650 E49.84770
G1 X108.140 Y104.017 Z0.650 E49.92175
G1 X98.483 Y94.360 Z0.650 E51.02544
G1 X97.567 Y94.360 Z0.650 E51.09949
G1 X108.140 Y104.933 Z0.650 E52.30790
G1 X108.140 Y105.640 Z0.650 E52.36504
G1 X107.931 Y105.640 Z0.650 E52.38195
G1 X96.650 Y94.360 Z0.650 E53.67117
G1 X95.734 Y94.360 Z0.650 E53.74521
G1 X107.015 Y105.640 Z0.650 E55.03443
G1 X106.099 Y105.640 Z0.650 E55.10847
G1 X94.818 Y94.360 Z0.650 E56.39769
G1 X93.902 Y94.360 Z0.650 E56.47173
G1 X105.182 Y105.640 Z0.650 E57.76095
G1 X104.266 Y105.640 Z0.650 E57.83500
G1 X92.985 Y94.360 Z0.650 E59.12421
G1 X92.069 Y94.360 Z0.650 E59.19826
G1 X103.350 Y105.640 Z0.650 E60.48747
G1 X102.433 Y105.640 Z0.650 E60.56152
G1 X91.860 Y95.067 Z0.650 E61.76994
G1 X91.860 Y95.983 Z0.650 E61.84398
G1 X101.517 Y105.640 Z0.650 E62.94768
G1 X100.601 Y105.640 Z0.650 E63.02173
G1 X91.860 Y96.899 Z0.650 E64.02071
G1 X91.860 Y97.815 Z0.650 E64.09476
G1 X99.685 Y105.640 Z0.650 E64.98902
G1 X98.768 Y105.640 Z0.650 E65.06307
G1 X91.860 Y98.732 Z0.650 E65.85261
G1 X91.860 Y99.648 Z0.650 E65.92666
G1 X97.852 Y105.640 Z0.650 E66.61149
G1 X96.936 Y105.640 Z0.650 E66.68553
G1 X91.860 Y100.564 Z0.650 E67.26564
G1 X91.860 Y101.481 Z0.650 E67.33969
G1 X96.019 Y105.640 Z0.650 E67.81508
G1 X95.103 Y105.640 Z0.650 E67.88913
G1 X91.860 Y102.397 Z0.650 E68.25981
G1 X91.860 Y103.313 Z0.650 E68.33385
G1 X94.187 Y105.640 Z0.650 E68.59981
G1 X93.270 Y105.640 Z0.650 E68.67386
G1 X91.860 Y104.230 Z0.650 E68.83510
G1 X91.860 Y105.146 Z0.650 E68.90914
G1 X92.354 Y105.640 Z0.650 E68.96565
G1 Z0.950 F7800.000
G1 X108.529 Y106.029 Z0.950 F7800.000
G1 F3600
G1 X91.471 Y106.029 Z0.950 E70.31793
G1 X91.471 Y93.971 Z0.950 E71.27383
G1 X108.529 Y93.971 Z0.950 E72.62612
G1 X108.529 Y105.954 Z0.950 E73.57607
G1 X109.164 Y106.664 Z0.950 F7800.000
G1 F3600
G1 X90.836 Y106.664 Z0.950 E75.02914
G1 X90.836 Y93.336 Z0.950 E76.08582
G1 X109.164 Y93.336 Z0.950 E77.53888
G1 X109.164 Y106.589 Z0.950 E78.58962
G1 X109.725 Y107.225 Z0.950 F7800.000
G1 F1800
G1 X90.275 Y107.225 Z0.950 E79.76769
G1 X90.275 Y92.775 Z0.950 E80.64291
G1 X109.725 Y92.775 Z0.950 E81.82098
G1 X109.725 Y107.150 Z0.950 E82.69167
G1 X109.236 Y107.119 F7800.000
G1 X107.646 Y105.640 Z0.950 F7800.000
G1 F1200
G1 X108.140 Y105.146 Z0.950 E82.74818
G1 X108.140 Y104.230 Z0.950 E82.82223
G1 X106.730 Y105.640 Z0.950 E82.98347
G1 X105.813 Y105.640 Z0.950 E83.05751
G1 X108.140 Y103.313 Z0.950 E83.32347
G1 X108.140 Y102.397 Z0.950 E83.39751
G1 X104.897 Y105.640 Z0.950 E83.76818
G1 X103.981 Y105.640 Z0.950 E83.84223
G1 X108.140 Y101.481 Z0.950 E84.31762
G1 X108.140 Y100.564 Z0.950 E84.39167
G1 X103.064 Y105.640 Z0.950 E84.97177
G1 X102.148 Y105.640 Z0.950 E85.04582
G1 X108.140 Y99.648 Z0.950 E85.73064
G1 X108.140 Y98.732 Z0.950 E85.80469
G1 X101.232 Y105.640 Z0.950 E86.59423
G1 X100.316 Y105.640 Z0.950 E86.66828
G1 X108.140 Y97.816 Z0.950 E87.56254
G1 X108.140 Y96.899 Z0.950 E87.63658
G1 X99.399 Y105.640 Z0.950 E88.63556
G1 X98.483 Y105.640 Z0.950 E88.70961
G1 X108.140 Y95.983 Z0.950 E89.81330
G1 X108.140 Y95.067 Z0.950 E89.88735
G1 X97.567 Y105.640 Z0.950 E91.09576
G1 X96.650 Y105.640 Z0.950 E91.16981
G1 X107.931 Y94.360 Z0.950 E92.45902
G1 X107.015 Y94.360 Z0.950 E92.53307
G1 X95.734 Y105.640 Z0.950 E93.82228
G1 X94.818 Y105.640 Z0.950 E93.89633
G1 X106.099 Y94.360 Z0.950 E95.18554
G1 X105.182 Y94.360 Z0.950 E95.25959
G1 X93.902 Y105.640 Z0.950 E96.54881
G1 X92.985 Y105.640 Z0.950 E96.62285
G1 X104.266 Y94.360 Z0.950 E97.91207
G1 X103.350 Y94.360 Z0.950 E97.98611
G1 X92.069 Y105.640 Z0.950 E99.27533
G1 X91.860 Y105.640 Z0.950 E99.29224
G1 X91.860 Y104.933 Z0.950 E99.34938
G1 X102.433 Y94.360 Z0.950 E100.55779
G1 X101.517 Y94.360 Z0.950 E100.63184
G1 X91.860 Y104.017 Z0.950 E101.73554
G1 X91.860 Y103.101 Z0.950 E101.80958
G1 X100.601 Y94.360 Z0.950 E102.80857
G1 X99.685 Y94.360 Z0.950 E102.88261
G1 X91.860 Y102.185 Z0.950 E103.77688
G1 X91.860 Y101.268 Z0.950 E103.85092
G1 X98.768 Y94.360 Z0.950 E104.64047
G1 X97.852 Y94.360 Z0.950 E104.71451
G1 X91.860 Y100.352 Z0.950 E105.39934
G1 X91.860 Y99.436 Z0.950 E105.47339
G1 X96.936 Y94.360 Z0.950 E106.05350
G1 X96.019 Y94.360 Z0.950 E106.12755
G1 X91.860 Y98.519 Z0.950 E106.60294
G1 X91.860 Y97.603 Z0.950 E106.67699
G1 X95.103 Y94.360 Z0.950 E107.04766
G1 X94.187 Y94.360 Z0.950 E107.12171
G1 X91.860 Y96.687 Z0.950 E107.38767
G1 X91.860 Y95.770 Z0.950 E107.46171
G1 X93.270 Y94.360 Z0.950 E107.62295
G1 X92.354 Y94.360 Z0.950 E107.69700
G1 X91.860 Y94.854 Z0.950 E107.75350
M106 S252.45
G1 Z1.250 F7800.000
G1 X108.529 Y106.029 Z1.250 F7800.000
G1 F3600
G1 X91.471 Y106.029 Z1.250 E109.10579
G1 X91.471 Y93.971 Z1.250 E110.06168
G1 X108.529 Y93.971 Z1.250 E111.41397
G1 X108.529 Y105.954 Z1.250 E112.36392
G1 X109.164 Y106.664 Z1.250 F7800.000
G1 F3600
G1 X90.836 Y106.664 Z1.250 E113.81699
G1 X90.836 Y93.336 Z1.250 E114.87367
G1 X109.164 Y93.336 Z1.250 E116.32674
G1 X109.164 Y106.589 Z1.250 E117.37747
G1 X109.725 Y107.225 Z1.250 F7800.000
G1 F1800
G1 X90.275 Y107.225 Z1.250 E118.55554
G1 X90.275 Y92.775 Z1.250 E119.43077
G1 X109.725 Y92.775 Z1.250 E120.60884
G1 X109.725 Y107.150 Z1.250 E121.47952
G1 X109.236 Y107.119 F7800.000
G1 X107.166 Y105.748 Z1.250 F7800.000
G1 F4800
G1 X108.016 Y102.576 Z1.250 E121.70920
G1 X108.248 Y102.143 Z1.250 F7800.000
G1 F4800
G1 X95.660 Y105.516 Z1.250 E122.62047
G1 X98.460 Y105.748 Z1.250 F7800.000
G1 F4800
G1 X101.540 Y94.252 Z1.250 E123.45272
G1 X104.340 Y94.484 Z1.250 F7800.000
G1 F4800
G1 X91.752 Y97.857 Z1.250 E124.36399
G1 X91.984 Y97.424 Z1.250 F7800.000
G1 F4800
G1 X92.834 Y94.252 Z1.250 E124.59367
G1 X91.837 Y103.729 Z1.250 F7800.000
G1 F4800
G1 X93.771 Y105.663 Z1.250 E124.78492
G1 X105.663 Y105.663 Z1.250 E125.61649
G1 X94.337 Y94.337 Z1.250 E126.73653
G1 X106.229 Y94.337 Z1.250 E127.56810
G1 X108.163 Y96.271 Z1.250 E127.75935
M106 S255
G1 Z1.550 F7800.000
G1 E125.75935 F2400.00000
G92 E0
G1 X102.529 Y106.029 Z1.550 F7800.000
G1 E2.00000 F2400.00000
G1 F2740.37
G1 X91.471 Y106.029 Z1.550 E2.87662
G1 X91.471 Y93.971 Z1.550 E3.83252
G1 X102.529 Y93.971 Z1.550 E4.70914
G1 X102.529 Y105.954 Z1.550 E5.65909
G1 X103.164 Y106.664 Z1.550 F7800.000
G1 F2740.37
G1 X90.836 Y106.664 Z1.550 E6.63649
G1 X90.836 Y93.336 Z1.550 E7.69317
G1 X103.164 Y93.336 Z1.550 E8.67057
G1 X103.164 Y106.589 Z1.550 E9.72130
G1 X103.725 Y107.225 Z1.550 F7800.000
G1 F1800
G1 X90.275 Y107.225 Z1.550 E10.53596
G1 X90.275 Y92.775 Z1.550 E11.41118
G1 X103.725 Y92.775 Z1.550 E12.22584
G1 X103.725 Y107.150 Z1.550 E13.09652
G1 X103.244 Y107.090 F7800.000
G1 X102.248 Y103.751 Z1.550 F7800.000
G1 F3653.83
G1 X95.660 Y105.516 Z1.550 E13.57344
G1 X98.460 Y105.748 Z1.550 F7800.000
G1 F3653.83
G1 X101.540 Y94.252 Z1.550 E14.40570
G1 X102.248 Y95.045 Z1.550 F7800.000
G1 F3653.83
G1 X91.752 Y97.857 Z1.550 E15.16557
G1 X91.984 Y97.424 Z1.550 F7800.000
G1 F3653.83
G1 X92.834 Y94.252 Z1.550 E15.39525
G1 X92.302 Y104.194 Z1.550 F7800.000
G1 F3653.83
G1 X92.302 Y105.663 Z1.550 E15.49795
G1 X93.771 Y105.663 Z1.550 E15.60066
G1 X91.837 Y103.729 Z1.550 E15.79191
G1 X91.837 Y94.337 Z1.550 E16.44867
G1 X94.337 Y94.337 Z1.550 E16.62348
G1 X102.163 Y102.163 Z1.550 E17.39742
M106 S244.8
G1 Z1.850 F7800.000
G1 E15.39742 F2400.00000
G92 E0
G1 X96.529 Y106.029 Z1.850 F7800.000
G1 E2.00000 F2400.00000
G1 F900
G1 X91.471 Y106.029 Z1.850 E2.40095
G1 X91.471 Y93.971 Z1.850 E3.35685
G1 X96.529 Y93.971 Z1.850 E3.75780
G1 X96.529 Y105.954 Z1.850 E4.70775
G1 X97.164 Y106.664 Z1.850 F7800.000
G1 F900
G1 X90.836 Y106.664 Z1.850 E5.20949
G1 X90.836 Y93.336 Z1.850 E6.26616
G1 X97.164 Y93.336 Z1.850 E6.76790
G1 X97.164 Y106.589 Z1.850 E7.81863
G1 X97.725 Y107.225 Z1.850 F7800.000
G1 F1800
G1 X90.275 Y107.225 Z1.850 E8.26987
G1 X90.275 Y92.775 Z1.850 E9.14510
G1 X97.725 Y92.775 Z1.850 E9.59634
G1 X97.725 Y107.150 Z1.850 E10.46702
G1 X97.258 Y107.047 F7800.000
G1 X91.833 Y105.205 Z1.850 F7800.000
M106 S255

G1 F3600
G1 X92.295 Y105.667 Z1.850 E10.52667
G1 X93.114 Y105.667 Z1.850 E10.60157
G1 X91.833 Y104.386 Z1.850 E10.76713
G1 X91.833 Y103.567 Z1.850 E10.84203
G1 X93.933 Y105.667 Z1.850 E11.11352
G1 X94.752 Y105.667 Z1.850 E11.18842
G1 X91.833 Y102.748 Z1.850 E11.56583
G1 X91.833 Y101.929 Z1.850 E11.64072
G1 X95.571 Y105.667 Z1.850 E12.12406
G1 X96.167 Y105.667 Z1.850 E12.17850
G1 X96.167 Y105.443 Z1.850 E12.19895
G1 X91.833 Y101.110 Z1.850 E12.75928
G1 X91.833 Y100.291 Z1.850 E12.83418
G1 X96.167 Y104.624 Z1.850 E13.39451
G1 X96.167 Y103.805 Z1.850 E13.46941
G1 X91.833 Y99.472 Z1.850 E14.02974
G1 X91.833 Y98.653 Z1.850 E14.10463
G1 X96.167 Y102.986 Z1.850 E14.66496
G1 X96.167 Y102.167 Z1.850 E14.73986
G1 X91.833 Y97.833 Z1.850 E15.30019
G1 X91.833 Y97.014 Z1.850 E15.37509
G1 X96.167 Y101.347 Z1.850 E15.93542
G1 X96.167 Y100.528 Z1.850 E16.01031
G1 X91.833 Y96.195 Z1.850 E16.57064
G1 X91.833 Y95.376 Z1.850 E16.64554
G1 X96.167 Y99.709 Z1.850 E17.20587
G1 X96.167 Y98.890 Z1.850 E17.28077
G1 X91.833 Y94.557 Z1.850 E17.84110
G1 X91.833 Y94.333 Z1.850 E17.86155
G1 X92.429 Y94.333 Z1.850 E17.91600
G1 X96.167 Y98.071 Z1.850 E18.39932
G1 X96.167 Y97.252 Z1.850 E18.47422
G1 X93.248 Y94.333 Z1.850 E18.85163
G1 X94.067 Y94.333 Z1.850 E18.92653
G1 X96.167 Y96.433 Z1.850 E19.19801
G1 X96.167 Y95.614 Z1.850 E19.27291
G1 X94.886 Y94.333 Z1.850 E19.43848
G1 X95.705 Y94.333 Z1.850 E19.51337
G1 X96.167 Y94.795 Z1.850 E19.57302
M106 S244.8

M106 S255
G1 Z2.150 F7800.000
G1 E17.57302 F2400.00000
G92 E0
G1 X91.725 Y107.225 Z2.150 F7800.000
G1 E2.00000 F2400.00000
G1 F600
G1 X90.275 Y107.225 Z2.150 E2.08783
G1 X90.275 Y92.775 Z2.150 E2.96305
G1 X91.725 Y92.775 Z2.150 E3.05088
G1 X91.725 Y107.150 Z2.150 E3.92156
G1 X91.284 Y106.990 F7800.000
G1 X91.000 Y106.945 Z2.150 F7800.000
G1 F674.274
G1 X91.000 Y93.055 Z2.150 E5.35080
M106 S209.1
G1 Z2.450 F7800.000
G1 Z2.450 F7800.000
G1 X91.471 Y106.029 F7800.000
G1 Z2.376 F7800.000
G1 F3600
G1 X91.471 Y93.971 Z2.376 E6.30669
G1 X108.529 Y93.971 Z1.524 E7.65899
G1 X108.529 Y106.029 Z1.524 E8.61488
G1 X91.546 Y106.029 Z2.376 E9.96124
G1 X90.836 Y106.664 Z2.408 F7800.000
G1 F3600
G1 X90.836 Y93.336 Z2.408 E11.01792
G1 X109.164 Y93.336 Z1.492 E12.47099
G1 X109.164 Y106.664 Z1.492 E13.52767
