; generated by Slic3r 1.3.0-dev on 2023-04-29 at 11:05:44

; external perimeters extrusion width = 0.44mm (3.38mm^3/s)
; perimeters extrusion width = 0.48mm (7.54mm^3/s)
; infill extrusion width = 0.48mm (10.05mm^3/s)
; solid infill extrusion width = 0.48mm (2.51mm^3/s)
; top infill extrusion width = 0.48mm (1.88mm^3/s)

M107
M104 S200 ; set temperature
G28 ; home all axes
G1 Z5 F5000 ; lift nozzle

; Filament gcode

M109 S200 ; set temperature and wait for it to be reached
G21 ; set units to millimeters
G90 ; use absolute coordinates
M82 ; use absolute distances for extrusion
G92 E0
G1 Z0.350 F7800.000
G1 E-2.00000 F2400.00000
G92 E0
G1 X84.915 Y88.253 Z0.350 F7800.000
G1 E2.00000 F2400.00000
G1 F1800
G1 X86.668 Y86.774 Z0.350 E2.20854
G1 X88.820 Y85.981 Z0.350 E2.41708
G1 X90.000 Y85.875 Z0.350 E2.52479
G1 X110.000 Y85.875 Z0.350 E4.34339
G1 X112.259 Y86.272 Z0.350 E4.55193
G1 X114.247 Y87.415 Z0.350 E4.76047
G1 X115.726 Y89.168 Z0.350 E4.96901
G1 X116.519 Y91.320 Z0.350 E5.17755
G1 X116.625 Y92.500 Z0.350 E5.28526
G1 X116.625 Y107.500 Z0.350 E6.64921
G1 X116.228 Y109.759 Z0.350 E6.85775
G1 X115.085 Y111.747 Z0.350 E7.06629
G1 X113.332 Y113.226 Z0.350 E7.27483
G1 X111.180 Y114.019 Z0.350 E7.48338
G1 X110.000 Y114.125 Z0.350 E7.59109
G1 X90.000 Y114.125 Z0.350 E9.40968
G1 X87.741 Y113.728 Z0.350 E9.61822
G1 X85.753 Y112.585 Z0.350 E9.82676
G1 X84.274 Y110.832 Z0.350 E10.03530
G1 X83.481 Y108.680 Z0.350 E10.24385
G1 X83.375 Y107.500 Z0.350 E10.35156
G1 X83.375 Y92.500 Z0.350 E11.71550
G1 X83.772 Y90.241 Z0.350 E11.92404
G1 X84.886 Y88.305 Z0.350 E12.12713
G1 E10.12713 F2400.00000
G92 E0
G1 X108.400 Y105.900 Z0.350 F7800.000
G1 E2.00000 F2400.00000
G1 F1800
G1 X91.600 Y105.900 Z0.350 E3.52766
G1 X91.600 Y94.100 Z0.350 E4.60067
G1 X108.400 Y94.100 Z0.350 E6.12833
G1 X108.400 Y105.840 Z0.350 E7.19589
G1 X109.025 Y106.525 Z0.350 F7800.000
G1 F1800
G1 X90.975 Y106.525 Z0.350 E8.83719
G1 X90.975 Y93.475 Z0.350 E10.02384
G1 X109.025 Y93.475 Z0.350 E11.66514
G1 X109.025 Y106.465 Z0.350 E12.84634
G1 X109.650 Y107.150 Z0.350 F7800.000
G1 F1800
G1 X90.350 Y107.150 Z0.350 E14.60128
G1 X90.350 Y92.850 Z0.350 E15.90158
G1 X109.650 Y92.850 Z0.350 E17.65652
G1 X109.650 Y107.090 Z0.350 E18.95136
G1 X109.259 Y107.066 F7800.000
G1 E16.95136 F2400.00000
G92 E0
G1 X107.532 Y105.518 Z0.350 F7800.000
G1 E2.00000 F2400.00000
G1 F1800
G1 X108.018 Y105.032 Z0.350 E2.06368
G1 X108.018 Y104.132 Z0.350 E2.14703
G1 X106.632 Y105.518 Z0.350 E2.32858
G1 X105.732 Y105.518 Z0.350 E2.41193
G1 X108.018 Y103.232 Z0.350 E2.71136
G1 X108.018 Y102.332 Z0.350 E2.79471
G1 X104.832 Y105.518 Z0.350 E3.21201
G1 X103.932 Y105.518 Z0.350 E3.29536
G1 X108.018 Y101.432 Z0.350 E3.83054
G1 X108.018 Y100.532 Z0.350 E3.91389
G1 X103.032 Y105.518 Z0.350 E4.56694
G1 X102.132 Y105.518 Z0.350 E4.65030
G1 X108.018 Y99.632 Z0.350 E5.42123
G1 X108.018 Y98.732 Z0.350 E5.50458
G1 X101.232 Y105.518 Z0.350 E6.39338
G1 X100.332 Y105.518 Z0.350 E6.47673
G1 X108.018 Y97.832 Z0.350 E7.48342
G1 X108.018 Y96.932 Z0.350 E7.56677
G1 X99.432 Y105.518 Z0.350 E8.69133
G1 X98.532 Y105.518 Z0.350 E8.77468
G1 X108.018 Y96.032 Z0.350 E10.01711
G1 X108.018 Y95.132 Z0.350 E10.10046
G1 X97.632 Y105.518 Z0.350 E11.46077
G1 X96.732 Y105.518 Z0.350 E11.54412
G1 X107.769 Y94.482 Z0.350 E12.98958
G1 X106.868 Y94.482 Z0.350 E13.07293
G1 X95.832 Y105.518 Z0.350 E14.51839
G1 X94.932 Y105.518 Z0.350 E14.60175
G1 X105.968 Y94.482 Z0.350 E16.04720
G1 X105.068 Y94.482 Z0.350 E16.13056
G1 X94.032 Y105.518 Z0.350 E17.57602
G1 X93.132 Y105.518 Z0.350 E17.65937
G1 X104.168 Y94.482 Z0.350 E19.10483
G1 X103.268 Y94.482 Z0.350 E19.18818
G1 X92.232 Y105.518 Z0.350 E20.63364
G1 X91.982 Y105.518 Z0.350 E20.65678
G1 X91.982 Y104.868 Z0.350 E20.71699
G1 X102.368 Y94.482 Z0.350 E22.07730
G1 X101.468 Y94.482 Z0.350 E22.16065
G1 X91.982 Y103.968 Z0.350 E23.40309
G1 X91.982 Y103.068 Z0.350 E23.48644
G1 X100.568 Y94.482 Z0.350 E24.61101
G1 X99.668 Y94.482 Z0.350 E24.69436
G1 X91.982 Y102.168 Z0.350 E25.70104
G1 X91.982 Y101.268 Z0.350 E25.78439
G1 X98.768 Y94.482 Z0.350 E26.67321
G1 X97.868 Y94.482 Z0.350 E26.75656
G1 X91.982 Y100.368 Z0.350 E27.52749
G1 X91.982 Y99.468 Z0.350 E27.61084
G1 X96.968 Y94.482 Z0.350 E28.26390
G1 X96.068 Y94.482 Z0.350 E28.34725
G1 X91.982 Y98.568 Z0.350 E28.88243
G1 X91.982 Y97.668 Z0.350 E28.96579
G1 X95.168 Y94.482 Z0.350 E29.38309
G1 X94.268 Y94.482 Z0.350 E29.46644
G1 X91.982 Y96.768 Z0.350 E29.76588
G1 X91.982 Y95.868 Z0.350 E29.84923
G1 X93.368 Y94.482 Z0.350 E30.03078
G1 X92.468 Y94.482 Z0.350 E30.11413
G1 X91.982 Y94.968 Z0.350 E30.17779
G1 Z0.650 F7800.000
G1 X108.964 Y106.464 Z0.650 F7800.000
G1 F3600
G1 X91.036 Y106.464 Z0.650 E31.11442
G1 X91.036 Y93.536 Z0.650 E31.78983
G1 X108.964 Y93.536 Z0.650 E32.72647
G1 X108.964 Y106.404 Z0.650 E33.39874
G1 X109.383 Y106.883 Z0.650 F7800.000
G1 F3600
G1 X90.617 Y106.883 Z0.650 E34.37915
G1 X90.617 Y93.117 Z0.650 E35.09832
G1 X109.383 Y93.117 Z0.650 E36.07873
G1 X109.383 Y106.823 Z0.650 E36.79477
G1 X109.780 Y107.280 Z0.650 F7800.000
G1 F1800
G1 X90.220 Y107.280 Z0.650 E37.71114
G1 X90.220 Y92.720 Z0.650 E38.39327
G1 X109.780 Y92.720 Z0.650 E39.30965
G1 X109.780 Y107.220 Z0.650 E39.98896
G1 X109.389 Y107.195 F7800.000
G1 X108.708 Y94.118 Z0.650 F7800.000
G1 F1200
G1 X108.382 Y93.792 Z0.650 E40.01317
G1 X107.786 Y93.792 Z0.650 E40.04445
G1 X108.708 Y94.714 Z0.650 E40.11289
G1 X108.708 Y95.309 Z0.650 E40.14417
G1 X107.191 Y93.792 Z0.650 E40.25684
G1 X106.595 Y93.792 Z0.650 E40.28811
G1 X108.708 Y95.905 Z0.650 E40.44502
G1 X108.708 Y96.500 Z0.650 E40.47629
G1 X106.000 Y93.792 Z0.650 E40.67743
G1 X105.404 Y93.792 Z0.650 E40.70870
G1 X108.708 Y97.096 Z0.650 E40.95407
G1 X108.708 Y97.691 Z0.650 E40.98534
G1 X104.809 Y93.792 Z0.650 E41.27494
G1 X104.213 Y93.792 Z0.650 E41.30622
G1 X108.708 Y98.287 Z0.650 E41.64004
G1 X108.708 Y98.882 Z0.650 E41.67132
G1 X103.618 Y93.792 Z0.650 E42.04938
G1 X103.022 Y93.792 Z0.650 E42.08065
G1 X108.708 Y99.478 Z0.650 E42.50294
G1 X108.708 Y100.073 Z0.650 E42.53422
G1 X102.427 Y93.792 Z0.650 E43.00074
G1 X101.831 Y93.792 Z0.650 E43.03202
G1 X108.708 Y100.669 Z0.650 E43.54277
G1 X108.708 Y101.264 Z0.650 E43.57404
G1 X101.236 Y93.792 Z0.650 E44.12902
G1 X100.640 Y93.792 Z0.650 E44.16030
G1 X108.708 Y101.860 Z0.650 E44.75951
G1 X108.708 Y102.455 Z0.650 E44.79079
G1 X100.045 Y93.792 Z0.650 E45.43423
G1 X99.449 Y93.792 Z0.650 E45.46551
G1 X108.708 Y103.051 Z0.650 E46.15319
G1 X108.708 Y103.646 Z0.650 E46.18446
G1 X98.854 Y93.792 Z0.650 E46.91637
G1 X98.258 Y93.792 Z0.650 E46.94764
G1 X108.708 Y104.242 Z0.650 E47.72378
G1 X108.708 Y104.837 Z0.650 E47.75506
G1 X97.663 Y93.792 Z0.650 E48.57543
G1 X97.067 Y93.792 Z0.650 E48.60670
G1 X108.708 Y105.433 Z0.650 E49.47130
G1 X108.708 Y106.028 Z0.650 E49.50258
G1 X96.472 Y93.792 Z0.650 E50.41141
G1 X95.876 Y93.792 Z0.650 E50.44268
G1 X108.292 Y106.208 Z0.650 E51.36487
G1 X107.697 Y106.208 Z0.650 E51.39615
G1 X95.281 Y93.792 Z0.650 E52.31833
G1 X94.685 Y93.792 Z0.650 E52.34961
G1 X107.101 Y106.208 Z0.650 E53.27179
G1 X106.506 Y106.208 Z0.650 E53.30307
G1 X94.090 Y93.792 Z0.650 E54.22525
G1 X93.494 Y93.792 Z0.650 E54.25653
G1 X105.910 Y106.208 Z0.650 E55.17871
G1 X105.315 Y106.208 Z0.650 E55.20999
G1 X92.899 Y93.792 Z0.650 E56.13217
G1 X92.303 Y93.792 Z0.650 E56.16345
G1 X104.719 Y106.208 Z0.650 E57.08563
G1 X104.124 Y106.208 Z0.650 E57.11691
G1 X91.708 Y93.792 Z0.650 E58.03910
G1 X91.292 Y93.792 Z0.650 E58.06093
G1 X91.292 Y93.972 Z0.650 E58.07037
G1 X103.528 Y106.208 Z0.650 E58.97920
G1 X102.933 Y106.208 Z0.650 E59.01048
G1 X91.292 Y94.567 Z0.650 E59.87508
G1 X91.292 Y95.163 Z0.650 E59.90636
G1 X102.337 Y106.208 Z0.650 E60.72673
G1 X101.742 Y106.208 Z0.650 E60.75801
G1 X91.292 Y95.758 Z0.650 E61.53415
G1 X91.292 Y96.354 Z0.650 E61.56542
G1 X101.146 Y106.208 Z0.650 E62.29733
G1 X100.551 Y106.208 Z0.650 E62.32861
G1 X91.292 Y96.949 Z0.650 E63.01629
G1 X91.292 Y97.545 Z0.650 E63.04757
G1 X99.955 Y106.208 Z0.650 E63.69101
G1 X99.360 Y106.208 Z0.650 E63.72229
G1 X91.292 Y98.140 Z0.650 E64.32151
G1 X91.292 Y98.736 Z0.650 E64.35278
G1 X98.764 Y106.208 Z0.650 E64.90777
G1 X98.169 Y106.208 Z0.650 E64.93904
G1 X91.292 Y99.331 Z0.650 E65.44980
G1 X91.292 Y99.927 Z0.650 E65.48107
G1 X97.573 Y106.208 Z0.650 E65.94760
G1 X96.978 Y106.208 Z0.650 E65.97887
G1 X91.292 Y100.522 Z0.650 E66.40117
G1 X91.292 Y101.118 Z0.650 E66.43244
G1 X96.382 Y106.208 Z0.650 E66.81050
G1 X95.787 Y106.208 Z0.650 E66.84178
G1 X91.292 Y101.713 Z0.650 E67.17561
G1 X91.292 Y102.309 Z0.650 E67.20689
G1 X95.191 Y106.208 Z0.650 E67.49649
G1 X94.596 Y106.208 Z0.650 E67.52776
G1 X91.292 Y102.904 Z0.650 E67.77313
G1 X91.292 Y103.500 Z0.650 E67.80441
G1 X94.000 Y106.208 Z0.650 E68.00554
G1 X93.405 Y106.208 Z0.650 E68.03682
G1 X91.292 Y104.095 Z0.650 E68.19373
G1 X91.292 Y104.691 Z0.650 E68.22500
G1 X92.809 Y106.208 Z0.650 E68.33768
G1 X92.214 Y106.208 Z0.650 E68.36895
G1 X91.292 Y105.286 Z0.650 E68.43740
G1 X91.292 Y105.882 Z0.650 E68.46867
G1 X91.618 Y106.208 Z0.650 E68.49287
G1 Z0.950 F7800.000
G1 X108.964 Y106.464 Z0.950 F7800.000
G1 F3600
G1 X91.036 Y106.464 Z0.950 E69.42951
G1 X91.036 Y93.536 Z0.950 E70.10492
G1 X108.964 Y93.536 Z0.950 E71.04155
G1 X108.964 Y106.404 Z0.950 E71.71383
G1 X109.383 Y106.883 Z0.950 F7800.000
G1 F3600
G1 X90.617 Y106.883 Z0.950 E72.69423
G1 X90.617 Y93.117 Z0.950 E73.41341
G1 X109.383 Y93.117 Z0.950 E74.39381
G1 X109.383 Y106.823 Z0.950 E75.10986
G1 X109.780 Y107.280 Z0.950 F7800.000
G1 F1800
G1 X90.220 Y107.280 Z0.950 E76.02623
G1 X90.220 Y92.720 Z0.950 E76.70836
G1 X109.780 Y92.720 Z0.950 E77.62473
G1 X109.780 Y107.220 Z0.950 E78.30405
G1 X109.389 Y107.195 F7800.000
G1 X108.382 Y106.208 Z0.950 F7800.000
G1 F1200
G1 X108.708 Y105.882 Z0.950 E78.32826
G1 X108.708 Y105.286 Z0.950 E78.35953
G1 X107.786 Y106.208 Z0.950 E78.42797
G1 X107.191 Y106.208 Z0.950 E78.45925
G1 X108.708 Y104.691 Z0.950 E78.57192
G1 X108.708 Y104.095 Z0.950 E78.60320
G1 X106.595 Y106.208 Z0.950 E78.76010
G1 X106.000 Y106.208 Z0.950 E78.79138
G1 X108.708 Y103.500 Z0.950 E78.99251
G1 X108.708 Y102.904 Z0.950 E79.02379
G1 X105.404 Y106.208 Z0.950 E79.26915
G1 X104.809 Y106.208 Z0.950 E79.30043
G1 X108.708 Y102.309 Z0.950 E79.59002
G1 X108.708 Y101.713 Z0.950 E79.62130
G1 X104.213 Y106.208 Z0.950 E79.95513
G1 X103.618 Y106.208 Z0.950 E79.98640
G1 X108.708 Y101.118 Z0.950 E80.36446
G1 X108.708 Y100.522 Z0.950 E80.39574
G1 X103.022 Y106.208 Z0.950 E80.81803
G1 X102.427 Y106.208 Z0.950 E80.84930
G1 X108.708 Y99.927 Z0.950 E81.31582
G1 X108.708 Y99.331 Z0.950 E81.34710
G1 X101.831 Y106.208 Z0.950 E81.85785
G1 X101.236 Y106.208 Z0.950 E81.88913
G1 X108.708 Y98.736 Z0.950 E82.44411
G1 X108.708 Y98.140 Z0.950 E82.47539
G1 X100.640 Y106.208 Z0.950 E83.07460
G1 X100.045 Y106.208 Z0.950 E83.10587
G1 X108.708 Y97.545 Z0.950 E83.74932
G1 X108.708 Y96.949 Z0.950 E83.78059
G1 X99.449 Y106.208 Z0.950 E84.46827
G1 X98.854 Y106.208 Z0.950 E84.49955
G1 X108.708 Y96.354 Z0.950 E85.23145
G1 X108.708 Y95.758 Z0.950 E85.26273
G1 X98.258 Y106.208 Z0.950 E86.03887
G1 X97.663 Y106.208 Z0.950 E86.07014
G1 X108.708 Y95.163 Z0.950 E86.89051
G1 X108.708 Y94.567 Z0.950 E86.92179
G1 X97.067 Y106.208 Z0.950 E87.78639
G1 X96.472 Y106.208 Z0.950 E87.81766
G1 X108.708 Y93.972 Z0.950 E88.72649
G1 X108.708 Y93.792 Z0.950 E88.73593
G1 X108.292 Y93.792 Z0.950 E88.75777
G1 X95.876 Y106.208 Z0.950 E89.67995
G1 X95.281 Y106.208 Z0.950 E89.71123
G1 X107.697 Y93.792 Z0.950 E90.63341
G1 X107.101 Y93.792 Z0.950 E90.66469
G1 X94.685 Y106.208 Z0.950 E91.58687
G1 X94.090 Y106.208 Z0.950 E91.61815
G1 X106.506 Y93.792 Z0.950 E92.54034
G1 X105.910 Y93.792 Z0.950 E92.57161
G1 X93.494 Y106.208 Z0.950 E93.49380
G1 X92.899 Y106.208 Z0.950 E93.52507
G1 X105.315 Y93.792 Z0.950 E94.44726
G1 X104.719 Y93.792 Z0.950 E94.47853
G1 X92.303 Y106.208 Z0.950 E95.40072
G1 X91.708 Y106.208 Z0.950 E95.43199
G1 X104.124 Y93.792 Z0.950 E96.35418
G1 X103.528 Y93.792 Z0.950 E96.38546
G1 X91.292 Y106.028 Z0.950 E97.29429
G1 X91.292 Y105.433 Z0.950 E97.32556
G1 X102.933 Y93.792 Z0.950 E98.19017
G1 X102.337 Y93.792 Z0.950 E98.22144
G1 X91.292 Y104.837 Z0.950 E99.04182
G1 X91.292 Y104.242 Z0.950 E99.07309
G1 X101.742 Y93.792 Z0.950 E99.84923
G1 X101.146 Y93.792 Z0.950 E99.88051
G1 X91.292 Y103.646 Z0.950 E100.61242
G1 X91.292 Y103.051 Z0.950 E100.64369
G1 X100.551 Y93.792 Z0.950 E101.33137
G1 X99.955 Y93.792 Z0.950 E101.36265
G1 X91.292 Y102.455 Z0.950 E102.00610
G1 X91.292 Y101.860 Z0.950 E102.03737
G1 X99.360 Y93.792 Z0.950 E102.63659
G1 X98.764 Y93.792 Z0.950 E102.66786
G1 X91.292 Y101.264 Z0.950 E103.22285
G1 X91.292 Y100.669 Z0.950 E103.25413
G1 X98.169 Y93.792 Z0.950 E103.76488
G1 X97.573 Y93.792 Z0.950 E103.79616
G1 X91.292 Y100.073 Z0.950 E104.26268
G1 X91.292 Y99.478 Z0.950 E104.29396
G1 X96.978 Y93.792 Z0.950 E104.71625
G1 X96.382 Y93.792 Z0.950 E104.74752
G1 X91.292 Y98.882 Z0.950 E105.12559
G1 X91.292 Y98.287 Z0.950 E105.15686
G1 X95.787 Y93.792 Z0.950 E105.49069
G1 X95.191 Y93.792 Z0.950 E105.52197
G1 X91.292 Y97.691 Z0.950 E105.81157
G1 X91.292 Y97.096 Z0.950 E105.84284
G1 X94.596 Y93.792 Z0.950 E106.08821
G1 X94.000 Y93.792 Z0.950 E106.11949
G1 X91.292 Y96.500 Z0.950 E106.32062
G1 X91.292 Y95.905 Z0.950 E106.35190
G1 X93.405 Y93.792 Z0.950 E106.50881
G1 X92.809 Y93.792 Z0.950 E106.54008
G1 X91.292 Y95.309 Z0.950 E106.65276
G1 X91.292 Y94.714 Z0.950 E106.68403
G1 X92.214 Y93.792 Z0.950 E106.75248
G1 X91.618 Y93.792 Z0.950 E106.78376
G1 X91.292 Y94.118 Z0.950 E106.80795
M106 S249.9
G1 Z1.250 F7800.000
G1 X108.964 Y106.464 Z1.250 F7800.000
G1 F3600
G1 X91.036 Y106.464 Z1.250 E107.74459
G1 X91.036 Y93.536 Z1.250 E108.42000
G1 X108.964 Y93.536 Z1.250 E109.35663
G1 X108.964 Y106.404 Z1.250 E110.02891
G1 X109.383 Y106.883 Z1.250 F7800.000
G1 F3600
G1 X90.617 Y106.883 Z1.250 E111.00931
G1 X90.617 Y93.117 Z1.250 E111.72849
G1 X109.383 Y93.117 Z1.250 E112.70889
G1 X109.383 Y106.823 Z1.250 E113.42494
G1 X109.780 Y107.280 Z1.250 F7800.000
G1 F1800
G1 X90.220 Y107.280 Z1.250 E114.34131
G1 X90.220 Y92.720 Z1.250 E115.02344
G1 X109.780 Y92.720 Z1.250 E115.93981
G1 X109.780 Y107.220 Z1.250 E116.61913
G1 X109.389 Y107.195 F7800.000
G1 X104.825 Y106.268 Z1.250 F7800.000
G1 F4800
G1 X108.184 Y93.732 Z1.250 E117.29712
G1 X108.768 Y94.398 Z1.250 F7800.000
G1 F4800
G1 X91.232 Y99.097 Z1.250 E118.24556
G1 X91.292 Y100.178 Z1.250 F7800.000
G1 F4800
G1 X97.322 Y106.208 Z1.250 E118.69110
G1 X106.208 Y106.208 Z1.250 E119.15533
G1 X93.792 Y93.792 Z1.250 E120.07268
G1 X102.678 Y93.792 Z1.250 E120.53692
G1 X108.708 Y99.822 Z1.250 E120.98245
G1 X108.768 Y100.903 Z1.250 F7800.000
G1 F4800
G1 X91.232 Y105.602 Z1.250 E121.93089
G1 X91.816 Y106.268 Z1.250 F7800.000
G1 F4800
G1 X95.175 Y93.732 Z1.250 E122.60889
G1 X101.679 Y93.732 Z1.250 F7800.000
G1 F4800
G1 X98.321 Y106.268 Z1.250 E123.28688
M106 S255
G1 Z1.550 F7800.000
G1 X102.964 Y106.464 Z1.550 F7800.000
G1 F3282.78
G1 X91.036 Y106.464 Z1.550 E123.91005
G1 X91.036 Y93.536 Z1.550 E124.58546
G1 X102.964 Y93.536 Z1.550 E125.20862
G1 X102.964 Y106.404 Z1.550 E125.88090
G1 X103.383 Y106.883 Z1.550 F7800.000
G1 F3282.78
G1 X90.617 Y106.883 Z1.550 E126.54783
G1 X90.617 Y93.117 Z1.550 E127.26701
G1 X103.383 Y93.117 Z1.550 E127.93394
G1 X103.383 Y106.823 Z1.550 E128.64999
G1 X103.780 Y107.280 Z1.550 F7800.000
G1 F1800
G1 X90.220 Y107.280 Z1.550 E129.28527
G1 X90.220 Y92.720 Z1.550 E129.96739
G1 X103.780 Y92.720 Z1.550 E130.60267
G1 X103.780 Y107.220 Z1.550 E131.28199
G1 X103.395 Y107.172 F7800.000
G1 X102.708 Y102.708 Z1.550 F7800.000
G1 F4377.03
G1 X93.792 Y93.792 Z1.550 E131.94074
G1 X91.292 Y93.792 Z1.550 E132.07135
G1 X91.292 Y100.178 Z1.550 E132.40497
G1 X97.322 Y106.208 Z1.550 E132.85051
G1 X91.618 Y106.208 Z1.550 E133.14853
G1 X91.618 Y100.504 Z1.550 E133.44655
G1 X91.232 Y99.097 Z1.550 F7800.000
G1 F4377.03
G1 X102.768 Y96.006 Z1.550 E134.07046
G1 X101.679 Y93.732 Z1.550 F7800.000
G1 F4377.03
G1 X98.321 Y106.268 Z1.550 E134.74845
G1 X102.768 Y102.511 Z1.550 F7800.000
G1 F4377.03
G1 X91.232 Y105.602 Z1.550 E135.37236
G1 X91.816 Y106.268 Z1.550 F7800.000
G1 F4377.03
G1 X95.175 Y93.732 Z1.550 E136.05036
M106 S237.15
G1 Z1.850 F7800.000
