; generated by Slic3r 1.3.0-dev on 2022-05-09 at 00:31:08

; external perimeters extrusion width = 0.33mm (1.10mm^3/s)
; perimeters extrusion width = 0.42mm (2.84mm^3/s)
; infill extrusion width = 0.38mm (3.35mm^3/s)
; solid infill extrusion width = 0.42mm (0.95mm^3/s)
; top infill extrusion width = 0.42mm (0.71mm^3/s)

M107
M190 S55 ; set bed temperature and wait for it to be reached
M104 S215 ; set temperature
G28 ; home all axes
G1 Z5 F5000 ; lift nozzle

; Filament gcode

M109 S215 ; set temperature and wait for it to be reached
G21 ; set units to millimeters
G90 ; use absolute coordinates
M82 ; use absolute distances for extrusion
G92 E0
G1 Z0.240 F7800.000
G1 E-2.00000 F2400.00000
G92 E0
G1 X85.110 Y88.327 Z0.240 F7800.000
G1 E2.00000 F2400.00000
G1 F1800
G1 X86.856 Y86.893 Z0.240 E2.09658
G1 X90.000 Y86.072 Z0.240 E2.23554
G1 X110.000 Y86.072 Z0.240 E3.09065
G1 X112.224 Y86.468 Z0.240 E3.18723
G1 X114.173 Y87.610 Z0.240 E3.28381
G1 X115.607 Y89.356 Z0.240 E3.38039
G1 X116.428 Y92.500 Z0.240 E3.51935
G1 X116.428 Y107.500 Z0.240 E4.16068
G1 X116.032 Y109.724 Z0.240 E4.25726
G1 X114.890 Y111.673 Z0.240 E4.35385
G1 X113.144 Y113.107 Z0.240 E4.45043
G1 X110.000 Y113.928 Z0.240 E4.58939
G1 X90.000 Y113.928 Z0.240 E5.44449
G1 X87.776 Y113.532 Z0.240 E5.54108
G1 X85.827 Y112.390 Z0.240 E5.63766
G1 X84.393 Y110.644 Z0.240 E5.73424
G1 X83.572 Y107.500 Z0.240 E5.87320
G1 X83.572 Y92.500 Z0.240 E6.51453
G1 X83.968 Y90.276 Z0.240 E6.61111
G1 X85.087 Y88.366 Z0.240 E6.70577
G1 E4.70577 F2400.00000
G92 E0
G1 X108.903 Y106.403 Z0.240 F7800.000
G1 E2.00000 F2400.00000
G1 F1800
G1 X91.097 Y106.403 Z0.240 E2.76131
G1 X91.097 Y93.597 Z0.240 E3.30883
G1 X108.903 Y93.597 Z0.240 E4.07014
G1 X108.903 Y106.358 Z0.240 E4.61574
G1 X109.332 Y106.832 Z0.240 F7800.000
G1 F1800
G1 X90.668 Y106.832 Z0.240 E5.41369
G1 X90.668 Y93.168 Z0.240 E5.99786
G1 X109.332 Y93.168 Z0.240 E6.79581
G1 X109.332 Y106.787 Z0.240 E7.37805
G1 X109.760 Y107.260 Z0.240 F7800.000
G1 F1800
G1 X90.240 Y107.260 Z0.240 E8.21264
G1 X90.240 Y92.740 Z0.240 E8.83345
G1 X109.760 Y92.740 Z0.240 E9.66804
G1 X109.760 Y107.215 Z0.240 E10.28692
G1 X109.467 Y107.197 F7800.000
G1 X108.308 Y106.141 Z0.240 F7800.000
G1 F1800
G1 X108.641 Y105.808 Z0.240 E10.30738
G1 X108.641 Y105.193 Z0.240 E10.33405
G1 X107.693 Y106.141 Z0.240 E10.39223
G1 X107.078 Y106.141 Z0.240 E10.41890
G1 X108.641 Y104.578 Z0.240 E10.51480
G1 X108.641 Y103.963 Z0.240 E10.54147
G1 X106.463 Y106.141 Z0.240 E10.67509
G1 X105.848 Y106.141 Z0.240 E10.70176
G1 X108.641 Y103.348 Z0.240 E10.87310
G1 X108.641 Y102.734 Z0.240 E10.89977
G1 X105.234 Y106.141 Z0.240 E11.10883
G1 X104.619 Y106.141 Z0.240 E11.13551
G1 X108.641 Y102.119 Z0.240 E11.38229
G1 X108.641 Y101.504 Z0.240 E11.40896
G1 X104.004 Y106.141 Z0.240 E11.69346
G1 X103.389 Y106.141 Z0.240 E11.72013
G1 X108.641 Y100.889 Z0.240 E12.04235
G1 X108.641 Y100.274 Z0.240 E12.06903
G1 X102.774 Y106.141 Z0.240 E12.42897
G1 X102.159 Y106.141 Z0.240 E12.45564
G1 X108.641 Y99.659 Z0.240 E12.85331
G1 X108.641 Y99.044 Z0.240 E12.87998
G1 X101.544 Y106.141 Z0.240 E13.31536
G1 X100.930 Y106.141 Z0.240 E13.34204
G1 X108.641 Y98.430 Z0.240 E13.81514
G1 X108.641 Y97.815 Z0.240 E13.84181
G1 X100.315 Y106.141 Z0.240 E14.35264
G1 X99.700 Y106.141 Z0.240 E14.37931
G1 X108.641 Y97.200 Z0.240 E14.92786
G1 X108.641 Y96.585 Z0.240 E14.95453
G1 X99.085 Y106.141 Z0.240 E15.54080
G1 X98.470 Y106.141 Z0.240 E15.56747
G1 X108.641 Y95.970 Z0.240 E16.19146
G1 X108.641 Y95.355 Z0.240 E16.21813
G1 X97.855 Y106.141 Z0.240 E16.87984
G1 X97.240 Y106.141 Z0.240 E16.90651
G1 X108.641 Y94.741 Z0.240 E17.60594
G1 X108.641 Y94.126 Z0.240 E17.63262
G1 X96.626 Y106.141 Z0.240 E18.36977
G1 X96.011 Y106.141 Z0.240 E18.39644
G1 X108.293 Y93.859 Z0.240 E19.14996
G1 X107.678 Y93.859 Z0.240 E19.17663
G1 X95.396 Y106.141 Z0.240 E19.93015
G1 X94.781 Y106.141 Z0.240 E19.95683
G1 X107.063 Y93.859 Z0.240 E20.71035
G1 X106.449 Y93.859 Z0.240 E20.73702
G1 X94.166 Y106.141 Z0.240 E21.49054
G1 X93.551 Y106.141 Z0.240 E21.51721
G1 X105.834 Y93.859 Z0.240 E22.27074
G1 X105.219 Y93.859 Z0.240 E22.29741
G1 X92.937 Y106.141 Z0.240 E23.05093
G1 X92.322 Y106.141 Z0.240 E23.07760
G1 X104.604 Y93.859 Z0.240 E23.83112
G1 X103.989 Y93.859 Z0.240 E23.85780
G1 X91.707 Y106.141 Z0.240 E24.61132
G1 X91.359 Y106.141 Z0.240 E24.62642
G1 X91.359 Y105.874 Z0.240 E24.63799
G1 X103.374 Y93.859 Z0.240 E25.37514
G1 X102.760 Y93.859 Z0.240 E25.40182
G1 X91.359 Y105.260 Z0.240 E26.10125
G1 X91.359 Y104.645 Z0.240 E26.12792
G1 X102.145 Y93.859 Z0.240 E26.78964
G1 X101.530 Y93.859 Z0.240 E26.81631
G1 X91.359 Y104.030 Z0.240 E27.44030
G1 X91.359 Y103.415 Z0.240 E27.46697
G1 X100.915 Y93.859 Z0.240 E28.05324
G1 X100.300 Y93.859 Z0.240 E28.07992
G1 X91.359 Y102.800 Z0.240 E28.62847
G1 X91.359 Y102.185 Z0.240 E28.65514
G1 X99.685 Y93.859 Z0.240 E29.16597
G1 X99.070 Y93.859 Z0.240 E29.19264
G1 X91.359 Y101.570 Z0.240 E29.66575
G1 X91.359 Y100.956 Z0.240 E29.69242
G1 X98.456 Y93.859 Z0.240 E30.12781
G1 X97.841 Y93.859 Z0.240 E30.15448
G1 X91.359 Y100.341 Z0.240 E30.55215
G1 X91.359 Y99.726 Z0.240 E30.57882
G1 X97.226 Y93.859 Z0.240 E30.93877
G1 X96.611 Y93.859 Z0.240 E30.96544
G1 X91.359 Y99.111 Z0.240 E31.28767
G1 X91.359 Y98.496 Z0.240 E31.31434
G1 X95.996 Y93.859 Z0.240 E31.59885
G1 X95.381 Y93.859 Z0.240 E31.62552
G1 X91.359 Y97.881 Z0.240 E31.87230
G1 X91.359 Y97.267 Z0.240 E31.89898
G1 X94.767 Y93.859 Z0.240 E32.10804
G1 X94.152 Y93.859 Z0.240 E32.13471
G1 X91.359 Y96.652 Z0.240 E32.30605
G1 X91.359 Y96.037 Z0.240 E32.33273
G1 X93.537 Y93.859 Z0.240 E32.46635
G1 X92.922 Y93.859 Z0.240 E32.49302
G1 X91.359 Y95.422 Z0.240 E32.58892
G1 X91.359 Y94.807 Z0.240 E32.61559
G1 X92.307 Y93.859 Z0.240 E32.67378
G1 X91.692 Y93.859 Z0.240 E32.70045
G1 X91.359 Y94.192 Z0.240 E32.72090
M104 S210 ; set temperature
M140 S50 ; set bed temperature
G1 Z0.360 F7800.000
G1 X109.092 Y106.592 Z0.360 F7800.000
G1 F3600
G1 X90.908 Y106.592 Z0.360 E33.07854
G1 X90.908 Y93.408 Z0.360 E33.33784
G1 X109.092 Y93.408 Z0.360 E33.69548
G1 X109.092 Y106.547 Z0.360 E33.95389
G1 X109.486 Y106.986 Z0.360 F7800.000
G1 F3600
G1 X90.514 Y106.986 Z0.360 E34.32705
G1 X90.514 Y93.014 Z0.360 E34.60185
G1 X109.486 Y93.014 Z0.360 E34.97501
G1 X109.486 Y106.941 Z0.360 E35.24893
G1 X109.835 Y107.335 Z0.360 F7800.000
G1 F1800
G1 X90.165 Y107.335 Z0.360 E35.54750
G1 X90.165 Y92.665 Z0.360 E35.77018
G1 X109.835 Y92.665 Z0.360 E36.06875
G1 X109.835 Y107.290 Z0.360 E36.29074
G1 X109.542 Y107.271 F7800.000
G1 X108.851 Y93.956 Z0.360 F7800.000
G1 F1200
G1 X108.544 Y93.649 Z0.360 E36.29934
G1 X107.982 Y93.649 Z0.360 E36.31049
G1 X108.851 Y94.518 Z0.360 E36.33485
G1 X108.851 Y95.080 Z0.360 E36.34600
G1 X107.420 Y93.649 Z0.360 E36.38612
G1 X106.858 Y93.649 Z0.360 E36.39726
G1 X108.851 Y95.642 Z0.360 E36.45315
G1 X108.851 Y96.204 Z0.360 E36.46429
G1 X106.296 Y93.649 Z0.360 E36.53594
G1 X105.734 Y93.649 Z0.360 E36.54708
G1 X108.851 Y96.766 Z0.360 E36.63449
G1 X108.851 Y97.328 Z0.360 E36.64563
G1 X105.172 Y93.649 Z0.360 E36.74880
G1 X104.609 Y93.649 Z0.360 E36.75994
G1 X108.851 Y97.891 Z0.360 E36.87887
G1 X108.851 Y98.453 Z0.360 E36.89001
G1 X104.047 Y93.649 Z0.360 E37.02470
G1 X103.485 Y93.649 Z0.360 E37.03584
G1 X108.851 Y99.015 Z0.360 E37.18629
G1 X108.851 Y99.577 Z0.360 E37.19744
G1 X102.923 Y93.649 Z0.360 E37.36364
G1 X102.361 Y93.649 Z0.360 E37.37479
G1 X108.851 Y100.139 Z0.360 E37.55676
G1 X108.851 Y100.701 Z0.360 E37.56790
G1 X101.799 Y93.649 Z0.360 E37.76563
G1 X101.237 Y93.649 Z0.360 E37.77678
G1 X108.851 Y101.263 Z0.360 E37.99027
G1 X108.851 Y101.825 Z0.360 E38.00141
G1 X100.675 Y93.649 Z0.360 E38.23066
G1 X100.113 Y93.649 Z0.360 E38.24180
G1 X108.851 Y102.387 Z0.360 E38.48682
G1 X108.851 Y102.949 Z0.360 E38.49796
G1 X99.551 Y93.649 Z0.360 E38.75873
G1 X98.989 Y93.649 Z0.360 E38.76988
G1 X108.851 Y103.511 Z0.360 E39.04641
G1 X108.851 Y104.073 Z0.360 E39.05755
G1 X98.427 Y93.649 Z0.360 E39.34984
G1 X97.865 Y93.649 Z0.360 E39.36099
G1 X108.851 Y104.635 Z0.360 E39.66904
G1 X108.851 Y105.197 Z0.360 E39.68019
G1 X97.303 Y93.649 Z0.360 E40.00400
G1 X96.741 Y93.649 Z0.360 E40.01514
G1 X108.851 Y105.759 Z0.360 E40.35472
G1 X108.851 Y106.321 Z0.360 E40.36586
G1 X96.179 Y93.649 Z0.360 E40.72120
G1 X95.617 Y93.649 Z0.360 E40.73234
G1 X108.318 Y106.351 Z0.360 E41.08850
G1 X107.756 Y106.351 Z0.360 E41.09964
G1 X95.055 Y93.649 Z0.360 E41.45579
G1 X94.492 Y93.649 Z0.360 E41.46694
G1 X107.194 Y106.351 Z0.360 E41.82309
G1 X106.632 Y106.351 Z0.360 E41.83424
G1 X93.930 Y93.649 Z0.360 E42.19039
G1 X93.368 Y93.649 Z0.360 E42.20154
G1 X106.070 Y106.351 Z0.360 E42.55769
G1 X105.508 Y106.351 Z0.360 E42.56884
G1 X92.806 Y93.649 Z0.360 E42.92499
G1 X92.244 Y93.649 Z0.360 E42.93614
G1 X104.945 Y106.351 Z0.360 E43.29229
G1 X104.383 Y106.351 Z0.360 E43.30344
G1 X91.682 Y93.649 Z0.360 E43.65959
G1 X91.149 Y93.649 Z0.360 E43.67016
G1 X91.149 Y93.679 Z0.360 E43.67073
G1 X103.821 Y106.351 Z0.360 E44.02607
G1 X103.259 Y106.351 Z0.360 E44.03721
G1 X91.149 Y94.241 Z0.360 E44.37679
G1 X91.149 Y94.803 Z0.360 E44.38793
G1 X102.697 Y106.351 Z0.360 E44.71175
G1 X102.135 Y106.351 Z0.360 E44.72289
G1 X91.149 Y95.365 Z0.360 E45.03095
G1 X91.149 Y95.927 Z0.360 E45.04209
G1 X101.573 Y106.351 Z0.360 E45.33438
G1 X101.011 Y106.351 Z0.360 E45.34553
G1 X91.149 Y96.489 Z0.360 E45.62206
G1 X91.149 Y97.051 Z0.360 E45.63321
G1 X100.449 Y106.351 Z0.360 E45.89398
G1 X99.887 Y106.351 Z0.360 E45.90512
G1 X91.149 Y97.613 Z0.360 E46.15013
G1 X91.149 Y98.175 Z0.360 E46.16128
G1 X99.325 Y106.351 Z0.360 E46.39053
G1 X98.763 Y106.351 Z0.360 E46.40167
G1 X91.149 Y98.737 Z0.360 E46.61516
G1 X91.149 Y99.299 Z0.360 E46.62631
G1 X98.201 Y106.351 Z0.360 E46.82404
G1 X97.639 Y106.351 Z0.360 E46.83518
G1 X91.149 Y99.861 Z0.360 E47.01715
G1 X91.149 Y100.423 Z0.360 E47.02830
G1 X97.077 Y106.351 Z0.360 E47.19451
G1 X96.515 Y106.351 Z0.360 E47.20565
G1 X91.149 Y100.985 Z0.360 E47.35610
G1 X91.149 Y101.547 Z0.360 E47.36724
G1 X95.953 Y106.351 Z0.360 E47.50193
G1 X95.391 Y106.351 Z0.360 E47.51308
G1 X91.149 Y102.109 Z0.360 E47.63200
G1 X91.149 Y102.671 Z0.360 E47.64315
G1 X94.829 Y106.351 Z0.360 E47.74631
G1 X94.266 Y106.351 Z0.360 E47.75746
G1 X91.149 Y103.234 Z0.360 E47.84486
G1 X91.149 Y103.796 Z0.360 E47.85601
G1 X93.704 Y106.351 Z0.360 E47.92765
G1 X93.142 Y106.351 Z0.360 E47.93880
G1 X91.149 Y104.358 Z0.360 E47.99468
G1 X91.149 Y104.920 Z0.360 E48.00583
G1 X92.580 Y106.351 Z0.360 E48.04595
G1 X92.018 Y106.351 Z0.360 E48.05710
G1 X91.149 Y105.482 Z0.360 E48.08146
G1 X91.149 Y106.044 Z0.360 E48.09261
G1 X91.456 Y106.350 Z0.360 E48.10121
G1 Z0.480 F7800.000
G1 X109.092 Y106.592 Z0.480 F7800.000
G1 F3600
G1 X90.908 Y106.592 Z0.480 E48.45885
G1 X90.908 Y93.408 Z0.480 E48.71815
G1 X109.092 Y93.408 Z0.480 E49.07579
G1 X109.092 Y106.547 Z0.480 E49.33420
G1 X109.486 Y106.986 Z0.480 F7800.000
G1 F3600
G1 X90.514 Y106.986 Z0.480 E49.70736
G1 X90.514 Y93.014 Z0.480 E49.98217
G1 X109.486 Y93.014 Z0.480 E50.35532
G1 X109.486 Y106.941 Z0.480 E50.62924
G1 X109.835 Y107.335 Z0.480 F7800.000
G1 F1800
G1 X90.165 Y107.335 Z0.480 E50.92781
G1 X90.165 Y92.665 Z0.480 E51.15049
G1 X109.835 Y92.665 Z0.480 E51.44906
G1 X109.835 Y107.290 Z0.480 E51.67105
G1 X109.542 Y107.271 F7800.000
G1 X108.544 Y106.351 Z0.480 F7800.000
G1 F1200
G1 X108.851 Y106.044 Z0.480 E51.67965
G1 X108.851 Y105.482 Z0.480 E51.69080
G1 X107.982 Y106.351 Z0.480 E51.71516
G1 X107.420 Y106.351 Z0.480 E51.72631
G1 X108.851 Y104.920 Z0.480 E51.76643
G1 X108.851 Y104.358 Z0.480 E51.77757
G1 X106.858 Y106.351 Z0.480 E51.83346
G1 X106.296 Y106.351 Z0.480 E51.84460
G1 X108.851 Y103.796 Z0.480 E51.91625
G1 X108.851 Y103.234 Z0.480 E51.92739
G1 X105.734 Y106.351 Z0.480 E52.01480
G1 X105.171 Y106.351 Z0.480 E52.02594
G1 X108.851 Y102.672 Z0.480 E52.12911
G1 X108.851 Y102.109 Z0.480 E52.14025
G1 X104.609 Y106.351 Z0.480 E52.25918
G1 X104.047 Y106.351 Z0.480 E52.27032
G1 X108.851 Y101.547 Z0.480 E52.40501
G1 X108.851 Y100.985 Z0.480 E52.41615
G1 X103.485 Y106.351 Z0.480 E52.56660
G1 X102.923 Y106.351 Z0.480 E52.57775
G1 X108.851 Y100.423 Z0.480 E52.74395
G1 X108.851 Y99.861 Z0.480 E52.75510
G1 X102.361 Y106.351 Z0.480 E52.93707
G1 X101.799 Y106.351 Z0.480 E52.94821
G1 X108.851 Y99.299 Z0.480 E53.14594
G1 X108.851 Y98.737 Z0.480 E53.15709
G1 X101.237 Y106.351 Z0.480 E53.37058
G1 X100.675 Y106.351 Z0.480 E53.38172
G1 X108.851 Y98.175 Z0.480 E53.61097
G1 X108.851 Y97.613 Z0.480 E53.62211
G1 X100.113 Y106.351 Z0.480 E53.86712
G1 X99.551 Y106.351 Z0.480 E53.87827
G1 X108.851 Y97.051 Z0.480 E54.13904
G1 X108.851 Y96.489 Z0.480 E54.15018
G1 X98.989 Y106.351 Z0.480 E54.42672
G1 X98.427 Y106.351 Z0.480 E54.43786
G1 X108.851 Y95.927 Z0.480 E54.73015
G1 X108.851 Y95.365 Z0.480 E54.74130
G1 X97.865 Y106.351 Z0.480 E55.04935
G1 X97.303 Y106.351 Z0.480 E55.06050
G1 X108.851 Y94.803 Z0.480 E55.38431
G1 X108.851 Y94.241 Z0.480 E55.39545
G1 X96.741 Y106.351 Z0.480 E55.73503
G1 X96.179 Y106.351 Z0.480 E55.74617
G1 X108.851 Y93.679 Z0.480 E56.10151
G1 X108.851 Y93.649 Z0.480 E56.10209
G1 X108.318 Y93.649 Z0.480 E56.11265
G1 X95.617 Y106.351 Z0.480 E56.46881
G1 X95.055 Y106.351 Z0.480 E56.47995
G1 X107.756 Y93.649 Z0.480 E56.83610
G1 X107.194 Y93.649 Z0.480 E56.84725
G1 X94.492 Y106.351 Z0.480 E57.20340
G1 X93.930 Y106.351 Z0.480 E57.21455
G1 X106.632 Y93.649 Z0.480 E57.57070
G1 X106.070 Y93.649 Z0.480 E57.58185
G1 X93.368 Y106.351 Z0.480 E57.93800
G1 X92.806 Y106.351 Z0.480 E57.94915
G1 X105.508 Y93.649 Z0.480 E58.30530
G1 X104.945 Y93.649 Z0.480 E58.31645
G1 X92.244 Y106.351 Z0.480 E58.67260
G1 X91.682 Y106.351 Z0.480 E58.68375
G1 X104.383 Y93.649 Z0.480 E59.03990
G1 X103.821 Y93.649 Z0.480 E59.05104
G1 X91.149 Y106.321 Z0.480 E59.40638
G1 X91.149 Y105.759 Z0.480 E59.41752
G1 X103.259 Y93.649 Z0.480 E59.75710
G1 X102.697 Y93.649 Z0.480 E59.76824
G1 X91.149 Y105.197 Z0.480 E60.09206
G1 X91.149 Y104.635 Z0.480 E60.10320
G1 X102.135 Y93.649 Z0.480 E60.41126
G1 X101.573 Y93.649 Z0.480 E60.42240
G1 X91.149 Y104.073 Z0.480 E60.71469
G1 X91.149 Y103.511 Z0.480 E60.72584
G1 X101.011 Y93.649 Z0.480 E61.00237
G1 X100.449 Y93.649 Z0.480 E61.01352
G1 X91.149 Y102.949 Z0.480 E61.27429
G1 X91.149 Y102.387 Z0.480 E61.28543
G1 X99.887 Y93.649 Z0.480 E61.53044
G1 X99.325 Y93.649 Z0.480 E61.54159
G1 X91.149 Y101.825 Z0.480 E61.77084
G1 X91.149 Y101.263 Z0.480 E61.78198
G1 X98.763 Y93.649 Z0.480 E61.99547
G1 X98.201 Y93.649 Z0.480 E62.00662
G1 X91.149 Y100.701 Z0.480 E62.20435
G1 X91.149 Y100.139 Z0.480 E62.21549
G1 X97.639 Y93.649 Z0.480 E62.39746
G1 X97.077 Y93.649 Z0.480 E62.40861
G1 X91.149 Y99.577 Z0.480 E62.57482
G1 X91.149 Y99.015 Z0.480 E62.58596
G1 X96.515 Y93.649 Z0.480 E62.73641
G1 X95.953 Y93.649 Z0.480 E62.74755
G1 X91.149 Y98.453 Z0.480 E62.88224
G1 X91.149 Y97.891 Z0.480 E62.89338
G1 X95.391 Y93.649 Z0.480 E63.01231
G1 X94.829 Y93.649 Z0.480 E63.02346
G1 X91.149 Y97.329 Z0.480 E63.12662
G1 X91.149 Y96.766 Z0.480 E63.13777
G1 X94.266 Y93.649 Z0.480 E63.22517
G1 X93.704 Y93.649 Z0.480 E63.23632
G1 X91.149 Y96.204 Z0.480 E63.30796
G1 X91.149 Y95.642 Z0.480 E63.31911
G1 X93.142 Y93.649 Z0.480 E63.37499
G1 X92.580 Y93.649 Z0.480 E63.38614
G1 X91.149 Y95.080 Z0.480 E63.42626
G1 X91.149 Y94.518 Z0.480 E63.43741
G1 X92.018 Y93.649 Z0.480 E63.46177
G1 X91.456 Y93.649 Z0.480 E63.47291
G1 X91.150 Y93.956 Z0.480 E63.48151
M106 S242.25
G1 Z0.600 F7800.000
G1 X109.092 Y106.592 Z0.600 F7800.000
G1 F3600
G1 X90.908 Y106.592 Z0.600 E63.83916
G1 X90.908 Y93.408 Z0.600 E64.09846
G1 X109.092 Y93.408 Z0.600 E64.45610
G1 X109.092 Y106.547 Z0.600 E64.71451
G1 X109.486 Y106.986 Z0.600 F7800.000
G1 F3600
G1 X90.514 Y106.986 Z0.600 E65.08767
G1 X90.514 Y93.014 Z0.600 E65.36247
G1 X109.486 Y93.014 Z0.600 E65.73563
G1 X109.486 Y106.941 Z0.600 E66.00955
G1 X109.835 Y107.335 Z0.600 F7800.000
G1 F1800
G1 X90.165 Y107.335 Z0.600 E66.30812
G1 X90.165 Y92.665 Z0.600 E66.53080
G1 X109.835 Y92.665 Z0.600 E66.82937
G1 X109.835 Y107.290 Z0.600 E67.05136
G1 X109.542 Y107.271 F7800.000
G1 X108.917 Y105.204 Z0.600 F7800.000
G1 F4800
G1 X104.927 Y106.273 Z0.600 E67.12334
G1 X104.789 Y106.417 Z0.600 F7800.000
G1 F4800
G1 X108.228 Y93.583 Z0.600 E67.35486
