; generated by Slic3r 1.3.0-dev on 2022-05-09 at 00:35:34

; external perimeters extrusion width = 0.33mm (1.10mm^3/s)
; perimeters extrusion width = 0.42mm (2.84mm^3/s)
; infill extrusion width = 0.38mm (3.35mm^3/s)
; solid infill extrusion width = 0.42mm (0.95mm^3/s)
; top infill extrusion width = 0.42mm (0.71mm^3/s)

M107
M190 S55 ; set bed temperature and wait for it to be reached
M104 S215 ; set temperature
G28 ; home all axes
G1 Z5 F5000 ; lift nozzle

; Filament gcode

M109 S215 ; set temperature and wait for it to be reached
G21 ; set units to millimeters
G90 ; use absolute coordinates
M82 ; use absolute distances for extrusion
G92 E0
G1 Z0.240 F7800.000
G1 E-2.00000 F2400.00000
G92 E0
G1 X85.110 Y88.327 Z0.240 F7800.000
G1 E2.00000 F2400.00000
G1 F1800
G1 X86.856 Y86.893 Z0.240 E2.09658
G1 X90.000 Y86.072 Z0.240 E2.23554
G1 X110.000 Y86.072 Z0.240 E3.09065
G1 X112.224 Y86.468 Z0.240 E3.18723
G1 X114.173 Y87.610 Z0.240 E3.28381
G1 X115.607 Y89.356 Z0.240 E3.38039
G1 X116.428 Y92.500 Z0.240 E3.51935
G1 X116.428 Y107.500 Z0.240 E4.16068
G1 X116.032 Y109.724 Z0.240 E4.25726
G1 X114.890 Y111.673 Z0.240 E4.35385
G1 X113.144 Y113.107 Z0.240 E4.45043
G1 X110.000 Y113.928 Z0.240 E4.58939
G1 X90.000 Y113.928 Z0.240 E5.44449
G1 X87.776 Y113.532 Z0.240 E5.54108
G1 X85.827 Y112.390 Z0.240 E5.63766
G1 X84.393 Y110.644 Z0.240 E5.73424
G1 X83.572 Y107.500 Z0.240 E5.87320
G1 X83.572 Y92.500 Z0.240 E6.51453
G1 X83.968 Y90.276 Z0.240 E6.61111
G1 X85.087 Y88.366 Z0.240 E6.70577
G1 E4.70577 F2400.00000
G92 E0
G1 X108.903 Y106.403 Z0.240 F7800.000
G1 E2.00000 F2400.00000
G1 F1800
G1 X91.097 Y106.403 Z0.240 E2.76130
G1 X91.097 Y93.597 Z0.240 E3.30883
G1 X108.903 Y93.597 Z0.240 E4.07014
G1 X108.903 Y106.358 Z0.240 E4.61574
G1 X109.332 Y106.832 Z0.240 F7800.000
G1 F1800
G1 X90.668 Y106.832 Z0.240 E5.41369
G1 X90.668 Y93.168 Z0.240 E5.99785
G1 X109.332 Y93.168 Z0.240 E6.79580
G1 X109.332 Y106.787 Z0.240 E7.37804
G1 X109.760 Y107.260 Z0.240 F7800.000
G1 F1800
G1 X90.240 Y107.260 Z0.240 E8.21263
G1 X90.240 Y92.740 Z0.240 E8.83344
G1 X109.760 Y92.740 Z0.240 E9.66803
G1 X109.760 Y107.215 Z0.240 E10.28691
G1 X109.467 Y107.197 F7800.000
G1 X108.308 Y106.141 Z0.240 F7800.000
G1 F1800
G1 X108.641 Y105.808 Z0.240 E10.30737
G1 X108.641 Y105.193 Z0.240 E10.33404
G1 X107.693 Y106.141 Z0.240 E10.39222
G1 X107.078 Y106.141 Z0.240 E10.41889
G1 X108.641 Y104.578 Z0.240 E10.51479
G1 X108.641 Y103.963 Z0.240 E10.54146
G1 X106.463 Y106.141 Z0.240 E10.67508
G1 X105.848 Y106.141 Z0.240 E10.70175
G1 X108.641 Y103.348 Z0.240 E10.87309
G1 X108.641 Y102.734 Z0.240 E10.89976
G1 X105.234 Y106.141 Z0.240 E11.10882
G1 X104.619 Y106.141 Z0.240 E11.13550
G1 X108.641 Y102.119 Z0.240 E11.38228
G1 X108.641 Y101.504 Z0.240 E11.40895
G1 X104.004 Y106.141 Z0.240 E11.69345
G1 X103.389 Y106.141 Z0.240 E11.72012
G1 X108.641 Y100.889 Z0.240 E12.04234
G1 X108.641 Y100.274 Z0.240 E12.06902
G1 X102.774 Y106.141 Z0.240 E12.42896
G1 X102.159 Y106.141 Z0.240 E12.45563
G1 X108.641 Y99.659 Z0.240 E12.85330
G1 X108.641 Y99.044 Z0.240 E12.87997
G1 X101.544 Y106.141 Z0.240 E13.31535
G1 X100.930 Y106.141 Z0.240 E13.34203
G1 X108.641 Y98.430 Z0.240 E13.81513
G1 X108.641 Y97.815 Z0.240 E13.84180
G1 X100.315 Y106.141 Z0.240 E14.35263
G1 X99.700 Y106.141 Z0.240 E14.37930
G1 X108.641 Y97.200 Z0.240 E14.92785
G1 X108.641 Y96.585 Z0.240 E14.95452
G1 X99.085 Y106.141 Z0.240 E15.54079
G1 X98.470 Y106.141 Z0.240 E15.56746
G1 X108.641 Y95.970 Z0.240 E16.19145
G1 X108.641 Y95.355 Z0.240 E16.21812
G1 X97.855 Y106.141 Z0.240 E16.87983
G1 X97.240 Y106.141 Z0.240 E16.90650
G1 X108.641 Y94.740 Z0.240 E17.60593
G1 X108.641 Y94.126 Z0.240 E17.63261
G1 X96.626 Y106.141 Z0.240 E18.36976
G1 X96.011 Y106.141 Z0.240 E18.39643
G1 X108.293 Y93.859 Z0.240 E19.14995
G1 X107.678 Y93.859 Z0.240 E19.17662
G1 X95.396 Y106.141 Z0.240 E19.93014
G1 X94.781 Y106.141 Z0.240 E19.95681
G1 X107.063 Y93.859 Z0.240 E20.71033
G1 X106.449 Y93.859 Z0.240 E20.73701
G1 X94.166 Y106.141 Z0.240 E21.49053
G1 X93.551 Y106.141 Z0.240 E21.51720
G1 X105.834 Y93.859 Z0.240 E22.27072
G1 X105.219 Y93.859 Z0.240 E22.29739
G1 X92.937 Y106.141 Z0.240 E23.05091
G1 X92.322 Y106.141 Z0.240 E23.07758
G1 X104.604 Y93.859 Z0.240 E23.83110
G1 X103.989 Y93.859 Z0.240 E23.85778
G1 X91.707 Y106.141 Z0.240 E24.61130
G1 X91.359 Y106.141 Z0.240 E24.62640
G1 X91.359 Y105.874 Z0.240 E24.63797
G1 X103.374 Y93.859 Z0.240 E25.37512
G1 X102.760 Y93.859 Z0.240 E25.40179
G1 X91.359 Y105.260 Z0.240 E26.10123
G1 X91.359 Y104.645 Z0.240 E26.12790
G1 X102.145 Y93.859 Z0.240 E26.78961
G1 X101.530 Y93.859 Z0.240 E26.81628
G1 X91.359 Y104.030 Z0.240 E27.44027
G1 X91.359 Y103.415 Z0.240 E27.46694
G1 X100.915 Y93.859 Z0.240 E28.05321
G1 X100.300 Y93.859 Z0.240 E28.07988
G1 X91.359 Y102.800 Z0.240 E28.62843
G1 X91.359 Y102.185 Z0.240 E28.65510
G1 X99.685 Y93.859 Z0.240 E29.16593
G1 X99.070 Y93.859 Z0.240 E29.19260
G1 X91.359 Y101.570 Z0.240 E29.66571
G1 X91.359 Y100.956 Z0.240 E29.69238
G1 X98.456 Y93.859 Z0.240 E30.12777
G1 X97.841 Y93.859 Z0.240 E30.15444
G1 X91.359 Y100.341 Z0.240 E30.55211
G1 X91.359 Y99.726 Z0.240 E30.57878
G1 X97.226 Y93.859 Z0.240 E30.93872
G1 X96.611 Y93.859 Z0.240 E30.96539
G1 X91.359 Y99.111 Z0.240 E31.28762
G1 X91.359 Y98.496 Z0.240 E31.31429
G1 X95.996 Y93.859 Z0.240 E31.59879
G1 X95.381 Y93.859 Z0.240 E31.62547
G1 X91.359 Y97.881 Z0.240 E31.87225
G1 X91.359 Y97.267 Z0.240 E31.89892
G1 X94.767 Y93.859 Z0.240 E32.10798
G1 X94.152 Y93.859 Z0.240 E32.13465
G1 X91.359 Y96.652 Z0.240 E32.30599
G1 X91.359 Y96.037 Z0.240 E32.33267
G1 X93.537 Y93.859 Z0.240 E32.46629
G1 X92.922 Y93.859 Z0.240 E32.49296
G1 X91.359 Y95.422 Z0.240 E32.58886
G1 X91.359 Y94.807 Z0.240 E32.61553
G1 X92.307 Y93.859 Z0.240 E32.67371
G1 X91.692 Y93.859 Z0.240 E32.70038
G1 X91.359 Y94.192 Z0.240 E32.72083
M104 S210 ; set temperature
M140 S50 ; set bed temperature
G1 Z0.360 F7800.000
G1 X109.092 Y106.592 Z0.360 F7800.000
G1 F3600
G1 X90.908 Y106.592 Z0.360 E33.07847
G1 X90.908 Y93.408 Z0.360 E33.33777
G1 X109.092 Y93.408 Z0.360 E33.69541
G1 X109.092 Y106.547 Z0.360 E33.95383
G1 X109.486 Y106.986 Z0.360 F7800.000
G1 F3600
G1 X90.514 Y106.986 Z0.360 E34.32698
G1 X90.514 Y93.014 Z0.360 E34.60179
G1 X109.486 Y93.014 Z0.360 E34.97494
G1 X109.486 Y106.941 Z0.360 E35.24886
G1 X109.835 Y107.335 Z0.360 F7800.000
G1 F1800
G1 X90.165 Y107.335 Z0.360 E35.54743
G1 X90.165 Y92.665 Z0.360 E35.77011
G1 X109.835 Y92.665 Z0.360 E36.06868
G1 X109.835 Y107.290 Z0.360 E36.29067
G1 X109.542 Y107.271 F7800.000
G1 X108.851 Y93.956 Z0.360 F7800.000
G1 F1200
G1 X108.544 Y93.649 Z0.360 E36.29927
G1 X107.982 Y93.649 Z0.360 E36.31042
G1 X108.851 Y94.518 Z0.360 E36.33478
G1 X108.851 Y95.080 Z0.360 E36.34592
G1 X107.420 Y93.649 Z0.360 E36.38605
G1 X106.858 Y93.649 Z0.360 E36.39719
G1 X108.851 Y95.642 Z0.360 E36.45308
G1 X108.851 Y96.204 Z0.360 E36.46422
G1 X106.296 Y93.649 Z0.360 E36.53587
G1 X105.734 Y93.649 Z0.360 E36.54701
G1 X108.851 Y96.766 Z0.360 E36.63441
G1 X108.851 Y97.329 Z0.360 E36.64556
G1 X105.171 Y93.649 Z0.360 E36.74872
G1 X104.609 Y93.649 Z0.360 E36.75987
G1 X108.851 Y97.891 Z0.360 E36.87879
G1 X108.851 Y98.453 Z0.360 E36.88994
G1 X104.047 Y93.649 Z0.360 E37.02463
G1 X103.485 Y93.649 Z0.360 E37.03577
G1 X108.851 Y99.015 Z0.360 E37.18622
G1 X108.851 Y99.577 Z0.360 E37.19736
G1 X102.923 Y93.649 Z0.360 E37.36357
G1 X102.361 Y93.649 Z0.360 E37.37471
G1 X108.851 Y100.139 Z0.360 E37.55668
G1 X108.851 Y100.701 Z0.360 E37.56782
G1 X101.799 Y93.649 Z0.360 E37.76555
G1 X101.237 Y93.649 Z0.360 E37.77670
G1 X108.851 Y101.263 Z0.360 E37.99019
G1 X108.851 Y101.825 Z0.360 E38.00133
G1 X100.675 Y93.649 Z0.360 E38.23058
G1 X100.113 Y93.649 Z0.360 E38.24172
G1 X108.851 Y102.387 Z0.360 E38.48673
G1 X108.851 Y102.949 Z0.360 E38.49788
G1 X99.551 Y93.649 Z0.360 E38.75865
G1 X98.989 Y93.649 Z0.360 E38.76979
G1 X108.851 Y103.511 Z0.360 E39.04632
G1 X108.851 Y104.073 Z0.360 E39.05747
G1 X98.427 Y93.649 Z0.360 E39.34976
G1 X97.865 Y93.649 Z0.360 E39.36090
G1 X108.851 Y104.635 Z0.360 E39.66895
G1 X108.851 Y105.197 Z0.360 E39.68010
G1 X97.303 Y93.649 Z0.360 E40.00391
G1 X96.741 Y93.649 Z0.360 E40.01505
G1 X108.851 Y105.759 Z0.360 E40.35463
G1 X108.851 Y106.321 Z0.360 E40.36577
G1 X96.179 Y93.649 Z0.360 E40.72110
G1 X95.617 Y93.649 Z0.360 E40.73225
G1 X108.318 Y106.351 Z0.360 E41.08840
G1 X107.756 Y106.351 Z0.360 E41.09955
G1 X95.055 Y93.649 Z0.360 E41.45570
G1 X94.493 Y93.649 Z0.360 E41.46684
G1 X107.194 Y106.351 Z0.360 E41.82300
G1 X106.632 Y106.351 Z0.360 E41.83414
G1 X93.930 Y93.649 Z0.360 E42.19029
G1 X93.368 Y93.649 Z0.360 E42.20144
G1 X106.070 Y106.351 Z0.360 E42.55759
G1 X105.508 Y106.351 Z0.360 E42.56874
G1 X92.806 Y93.649 Z0.360 E42.92489
G1 X92.244 Y93.649 Z0.360 E42.93603
G1 X104.946 Y106.351 Z0.360 E43.29219
G1 X104.383 Y106.351 Z0.360 E43.30333
G1 X91.682 Y93.649 Z0.360 E43.65949
G1 X91.149 Y93.649 Z0.360 E43.67005
G1 X91.149 Y93.679 Z0.360 E43.67063
G1 X103.821 Y106.351 Z0.360 E44.02596
G1 X103.259 Y106.351 Z0.360 E44.03711
G1 X91.149 Y94.241 Z0.360 E44.37668
G1 X91.149 Y94.803 Z0.360 E44.38783
G1 X102.697 Y106.351 Z0.360 E44.71164
G1 X102.135 Y106.351 Z0.360 E44.72279
G1 X91.149 Y95.365 Z0.360 E45.03084
G1 X91.149 Y95.927 Z0.360 E45.04198
G1 X101.573 Y106.351 Z0.360 E45.33428
G1 X101.011 Y106.351 Z0.360 E45.34542
G1 X91.149 Y96.489 Z0.360 E45.62195
G1 X91.149 Y97.051 Z0.360 E45.63310
G1 X100.449 Y106.351 Z0.360 E45.89387
G1 X99.887 Y106.351 Z0.360 E45.90501
G1 X91.149 Y97.613 Z0.360 E46.15002
G1 X91.149 Y98.175 Z0.360 E46.16117
G1 X99.325 Y106.351 Z0.360 E46.39042
G1 X98.763 Y106.351 Z0.360 E46.40156
G1 X91.149 Y98.737 Z0.360 E46.61505
G1 X91.149 Y99.299 Z0.360 E46.62620
G1 X98.201 Y106.351 Z0.360 E46.82393
G1 X97.639 Y106.351 Z0.360 E46.83507
G1 X91.149 Y99.861 Z0.360 E47.01704
G1 X91.149 Y100.423 Z0.360 E47.02819
G1 X97.077 Y106.351 Z0.360 E47.19440
G1 X96.515 Y106.351 Z0.360 E47.20554
G1 X91.149 Y100.985 Z0.360 E47.35599
G1 X91.149 Y101.547 Z0.360 E47.36713
G1 X95.953 Y106.351 Z0.360 E47.50182
G1 X95.391 Y106.351 Z0.360 E47.51297
G1 X91.149 Y102.109 Z0.360 E47.63189
G1 X91.149 Y102.671 Z0.360 E47.64304
G1 X94.829 Y106.351 Z0.360 E47.74620
G1 X94.267 Y106.351 Z0.360 E47.75735
G1 X91.149 Y103.233 Z0.360 E47.84476
G1 X91.149 Y103.796 Z0.360 E47.85590
G1 X93.704 Y106.351 Z0.360 E47.92755
G1 X93.142 Y106.351 Z0.360 E47.93869
G1 X91.149 Y104.358 Z0.360 E47.99458
G1 X91.149 Y104.920 Z0.360 E48.00572
G1 X92.580 Y106.351 Z0.360 E48.04585
G1 X92.018 Y106.351 Z0.360 E48.05699
G1 X91.149 Y105.482 Z0.360 E48.08136
G1 X91.149 Y106.044 Z0.360 E48.09250
G1 X91.456 Y106.350 Z0.360 E48.10110
G1 Z0.480 F7800.000
G1 X109.092 Y106.592 Z0.480 F7800.000
G1 F3600
G1 X90.908 Y106.592 Z0.480 E48.45874
G1 X90.908 Y93.408 Z0.480 E48.71804
G1 X109.092 Y93.408 Z0.480 E49.07568
G1 X109.092 Y106.547 Z0.480 E49.33410
G1 X109.486 Y106.986 Z0.480 F7800.000
G1 F3600
G1 X90.514 Y106.986 Z0.480 E49.70725
G1 X90.514 Y93.014 Z0.480 E49.98206
G1 X109.486 Y93.014 Z0.480 E50.35521
G1 X109.486 Y106.941 Z0.480 E50.62913
G1 X109.835 Y107.335 Z0.480 F7800.000
G1 F1800
G1 X90.165 Y107.335 Z0.480 E50.92770
G1 X90.165 Y92.665 Z0.480 E51.15038
G1 X109.835 Y92.665 Z0.480 E51.44895
G1 X109.835 Y107.290 Z0.480 E51.67094
G1 X109.542 Y107.271 F7800.000
G1 X108.544 Y106.351 Z0.480 F7800.000
G1 F1200
G1 X108.851 Y106.044 Z0.480 E51.67954
G1 X108.851 Y105.482 Z0.480 E51.69069
G1 X107.982 Y106.351 Z0.480 E51.71505
G1 X107.420 Y106.351 Z0.480 E51.72620
G1 X108.851 Y104.920 Z0.480 E51.76632
G1 X108.851 Y104.358 Z0.480 E51.77746
G1 X106.858 Y106.351 Z0.480 E51.83335
G1 X106.296 Y106.351 Z0.480 E51.84449
G1 X108.851 Y103.796 Z0.480 E51.91614
G1 X108.851 Y103.234 Z0.480 E51.92728
G1 X105.734 Y106.351 Z0.480 E52.01469
G1 X105.171 Y106.351 Z0.480 E52.02583
G1 X108.851 Y102.671 Z0.480 E52.12900
G1 X108.851 Y102.109 Z0.480 E52.14014
G1 X104.609 Y106.351 Z0.480 E52.25907
G1 X104.047 Y106.351 Z0.480 E52.27021
G1 X108.851 Y101.547 Z0.480 E52.40490
G1 X108.851 Y100.985 Z0.480 E52.41604
G1 X103.485 Y106.351 Z0.480 E52.56649
G1 X102.923 Y106.351 Z0.480 E52.57763
G1 X108.851 Y100.423 Z0.480 E52.74384
G1 X108.851 Y99.861 Z0.480 E52.75498
G1 X102.361 Y106.351 Z0.480 E52.93695
G1 X101.799 Y106.351 Z0.480 E52.94810
G1 X108.851 Y99.299 Z0.480 E53.14582
G1 X108.851 Y98.737 Z0.480 E53.15697
G1 X101.237 Y106.351 Z0.480 E53.37046
G1 X100.675 Y106.351 Z0.480 E53.38160
G1 X108.851 Y98.175 Z0.480 E53.61085
G1 X108.851 Y97.613 Z0.480 E53.62199
G1 X100.113 Y106.351 Z0.480 E53.86700
G1 X99.551 Y106.351 Z0.480 E53.87815
G1 X108.851 Y97.051 Z0.480 E54.13892
G1 X108.851 Y96.489 Z0.480 E54.15006
G1 X98.989 Y106.351 Z0.480 E54.42659
G1 X98.427 Y106.351 Z0.480 E54.43774
G1 X108.851 Y95.927 Z0.480 E54.73003
G1 X108.851 Y95.365 Z0.480 E54.74117
G1 X97.865 Y106.351 Z0.480 E55.04922
G1 X97.303 Y106.351 Z0.480 E55.06037
G1 X108.851 Y94.803 Z0.480 E55.38418
G1 X108.851 Y94.241 Z0.480 E55.39532
G1 X96.741 Y106.351 Z0.480 E55.73490
G1 X96.179 Y106.351 Z0.480 E55.74604
G1 X108.851 Y93.679 Z0.480 E56.10137
G1 X108.851 Y93.649 Z0.480 E56.10195
G1 X108.318 Y93.649 Z0.480 E56.11252
G1 X95.617 Y106.351 Z0.480 E56.46867
G1 X95.055 Y106.351 Z0.480 E56.47982
G1 X107.756 Y93.649 Z0.480 E56.83597
G1 X107.194 Y93.649 Z0.480 E56.84711
G1 X94.493 Y106.351 Z0.480 E57.20327
G1 X93.930 Y106.351 Z0.480 E57.21441
G1 X106.632 Y93.649 Z0.480 E57.57057
G1 X106.070 Y93.649 Z0.480 E57.58171
G1 X93.368 Y106.351 Z0.480 E57.93786
G1 X92.806 Y106.351 Z0.480 E57.94901
G1 X105.508 Y93.649 Z0.480 E58.30516
G1 X104.946 Y93.649 Z0.480 E58.31631
G1 X92.244 Y106.351 Z0.480 E58.67246
G1 X91.682 Y106.351 Z0.480 E58.68360
G1 X104.383 Y93.649 Z0.480 E59.03976
G1 X103.821 Y93.649 Z0.480 E59.05090
G1 X91.149 Y106.321 Z0.480 E59.40624
G1 X91.149 Y105.759 Z0.480 E59.41738
G1 X103.259 Y93.649 Z0.480 E59.75695
G1 X102.697 Y93.649 Z0.480 E59.76810
G1 X91.149 Y105.197 Z0.480 E60.09191
G1 X91.149 Y104.635 Z0.480 E60.10306
G1 X102.135 Y93.649 Z0.480 E60.41111
G1 X101.573 Y93.649 Z0.480 E60.42225
G1 X91.149 Y104.073 Z0.480 E60.71455
G1 X91.149 Y103.511 Z0.480 E60.72569
G1 X101.011 Y93.649 Z0.480 E61.00222
G1 X100.449 Y93.649 Z0.480 E61.01337
G1 X91.149 Y102.949 Z0.480 E61.27414
G1 X91.149 Y102.387 Z0.480 E61.28528
G1 X99.887 Y93.649 Z0.480 E61.53029
G1 X99.325 Y93.649 Z0.480 E61.54144
G1 X91.149 Y101.825 Z0.480 E61.77069
G1 X91.149 Y101.263 Z0.480 E61.78183
G1 X98.763 Y93.649 Z0.480 E61.99532
G1 X98.201 Y93.649 Z0.480 E62.00647
G1 X91.149 Y100.701 Z0.480 E62.20420
G1 X91.149 Y100.139 Z0.480 E62.21534
G1 X97.639 Y93.649 Z0.480 E62.39731
G1 X97.077 Y93.649 Z0.480 E62.40846
G1 X91.149 Y99.577 Z0.480 E62.57467
G1 X91.149 Y99.015 Z0.480 E62.58581
G1 X96.515 Y93.649 Z0.480 E62.73626
G1 X95.953 Y93.649 Z0.480 E62.74740
G1 X91.149 Y98.453 Z0.480 E62.88209
G1 X91.149 Y97.891 Z0.480 E62.89324
G1 X95.391 Y93.649 Z0.480 E63.01216
G1 X94.829 Y93.649 Z0.480 E63.02331
G1 X91.149 Y97.329 Z0.480 E63.12648
G1 X91.149 Y96.767 Z0.480 E63.13762
G1 X94.267 Y93.649 Z0.480 E63.22503
G1 X93.704 Y93.649 Z0.480 E63.23617
G1 X91.149 Y96.204 Z0.480 E63.30782
G1 X91.149 Y95.642 Z0.480 E63.31896
G1 X93.142 Y93.649 Z0.480 E63.37485
G1 X92.580 Y93.649 Z0.480 E63.38599
G1 X91.149 Y95.080 Z0.480 E63.42612
G1 X91.149 Y94.518 Z0.480 E63.43726
G1 X92.018 Y93.649 Z0.480 E63.46163
G1 X91.456 Y93.649 Z0.480 E63.47277
G1 X91.150 Y93.956 Z0.480 E63.48137
M106 S242.25
G1 Z0.600 F7800.000
G1 X109.092 Y106.592 Z0.600 F7800.000
G1 F3600
G1 X90.908 Y106.592 Z0.600 E63.83901
G1 X90.908 Y93.408 Z0.600 E64.09831
G1 X109.092 Y93.408 Z0.600 E64.45595
G1 X109.092 Y106.547 Z0.600 E64.71437
G1 X109.486 Y106.986 Z0.600 F7800.000
G1 F3600
G1 X90.514 Y106.986 Z0.600 E65.08752
G1 X90.514 Y93.014 Z0.600 E65.36233
G1 X109.486 Y93.014 Z0.600 E65.73548
G1 X109.486 Y106.941 Z0.600 E66.00940
G1 X109.835 Y107.335 Z0.600 F7800.000
G1 F1800
G1 X90.165 Y107.335 Z0.600 E66.30797
G1 X90.165 Y92.665 Z0.600 E66.53065
G1 X109.835 Y92.665 Z0.600 E66.82922
G1 X109.835 Y107.290 Z0.600 E67.05121
G1 X109.542 Y107.271 F7800.000
G1 X108.917 Y105.204 Z0.600 F7800.000
G1 F4800
G1 X104.927 Y106.273 Z0.600 E67.12319
G1 X104.789 Y106.417 Z0.600 F7800.000
G1 F4800
G1 X108.228 Y93.583 Z0.600 E67.35471
